;FLAVOR:Marlin
;TIME:6878
;Filament used: 5.13098m
;Layer height: 0.2
;MINX:87.2
;MINY:74.7
;MINZ:0.2
;MAXX:132.8
;MAXY:145.3
;MAXZ:16
;TARGET_MACHINE.NAME:Creality Ender-5
;Generated with Cura_SteamEngine 5.10.2
M140 S70
M105
M190 S70
M104 S240
M105
M109 S240
M201 X500.00 Y500.00 Z100.00 E5000.00 ;Setup machine max acceleration
M203 X500.00 Y500.00 Z10.00 E50.00 ;Setup machine max feedrate
M204 P500.00 R1000.00 T500.00 ;Setup Print/Retract/Travel acceleration
M205 X8.00 Y8.00 Z0.40 E5.00 ;Setup Jerk
M220 S100 ;Reset Feedrate
M221 S100 ;Reset Flowrate

G28 ;Home

G92 E0 ;Reset Extruder
G1 Z2.0 F3000 ;Move Z Axis up
G1 X10.1 Y20 Z0.28 F5000.0 ;Move to start position
G1 X10.1 Y200.0 Z0.28 F1500.0 E15 ;Draw the first line
G1 X10.4 Y200.0 Z0.28 F5000.0 ;Move to side a little
G1 X10.4 Y20 Z0.28 F1500.0 E30 ;Draw the second line
G92 E0 ;Reset Extruder
G1 Z2.0 F3000 ;Move Z Axis up

M82 ;absolute extrusion mode
G92 E0
G92 E0
G1 F2100 E-6
;LAYER_COUNT:80
;LAYER:0
M107
G0 F6000 X88.719 Y77.723 Z0.2
;TYPE:SKIRT
G1 F2100 E0
G1 F900 X90.28 Y76.264 E0.07107
G1 X92.303 Y75.057 E0.14942
G1 X94.021 Y74.775 E0.20732
G1 X125.853 Y74.7 E1.26606
G1 X127.749 Y75.166 E1.331
G1 X129.777 Y76.219 E1.407
G1 X131.236 Y77.78 E1.47807
G1 X132.443 Y79.803 E1.55642
G1 X132.725 Y81.521 E1.61433
G1 X132.8 Y138.353 E3.50457
G1 X132.334 Y140.249 E3.56951
G1 X131.281 Y142.277 E3.64551
G1 X129.72 Y143.736 E3.71657
G1 X127.697 Y144.943 E3.79493
G1 X125.979 Y145.225 E3.85283
G1 X94.147 Y145.3 E4.91157
G1 X92.251 Y144.834 E4.97651
G1 X90.223 Y143.781 E5.05251
G1 X88.764 Y142.22 E5.12358
G1 X87.557 Y140.197 E5.20193
G1 X87.275 Y138.479 E5.25983
G1 X87.2 Y81.647 E7.15008
G1 X87.666 Y79.751 E7.21501
G1 X88.719 Y77.723 E7.29102
G0 F6000 X89.042 Y77.968
G1 F900 X90.519 Y76.588 E7.35825
G1 X92.443 Y75.44 E7.43276
G1 X94.086 Y75.17 E7.48814
G1 X125.807 Y75.1 E8.54319
G1 X127.606 Y75.542 E8.60481
G1 X129.532 Y76.542 E8.67698
G1 X130.912 Y78.019 E8.74422
G1 X132.06 Y79.943 E8.81873
G1 X132.33 Y81.586 E8.87411
G1 X132.4 Y138.307 E10.76066
G1 X131.958 Y140.106 E10.82228
G1 X130.958 Y142.032 E10.89446
G1 X129.481 Y143.412 E10.96169
G1 X127.557 Y144.56 E11.03621
G1 X125.914 Y144.83 E11.09158
G1 X94.193 Y144.9 E12.14663
G1 X92.394 Y144.458 E12.20825
G1 X90.468 Y143.458 E12.28043
G1 X89.088 Y141.981 E12.34766
G1 X87.94 Y140.057 E12.42217
G1 X87.67 Y138.414 E12.47755
G1 X87.6 Y81.693 E14.3641
G1 X88.042 Y79.894 E14.42572
G1 X89.042 Y77.968 E14.4979
G0 F6000 X89.365 Y78.213
G1 F900 X90.761 Y76.909 E14.56143
G1 X92.581 Y75.823 E14.63192
G1 X94.151 Y75.565 E14.68484
G1 X125.76 Y75.5 E15.73616
G1 X127.464 Y75.919 E15.79453
G1 X129.287 Y76.865 E15.86284
G1 X130.591 Y78.261 E15.92638
G1 X131.677 Y80.081 E15.99687
G1 X131.935 Y81.651 E16.04979
G1 X132 Y138.26 E17.93261
G1 X131.581 Y139.964 E17.99097
G1 X130.635 Y141.787 E18.05928
G1 X129.239 Y143.091 E18.12282
G1 X127.419 Y144.177 E18.19331
G1 X125.849 Y144.435 E18.24623
G1 X94.24 Y144.5 E19.29755
G1 X92.536 Y144.081 E19.35592
G1 X90.713 Y143.135 E19.42423
G1 X89.409 Y141.739 E19.48776
G1 X88.323 Y139.919 E19.55825
G1 X88.065 Y138.349 E19.61117
G1 X88 Y81.74 E21.494
G1 X88.419 Y80.036 E21.55236
G1 X89.365 Y78.213 E21.62067
G0 F6000 X89.688 Y78.458
G1 F900 X91.003 Y77.23 E21.68051
G1 X92.719 Y76.206 E21.74698
G1 X94.216 Y75.96 E21.79744
G1 X125.714 Y75.9 E22.84507
G1 X127.321 Y76.295 E22.90011
G1 X129.042 Y77.188 E22.96459
G1 X130.27 Y78.503 E23.02444
G1 X131.294 Y80.219 E23.0909
G1 X131.54 Y81.716 E23.14136
G1 X131.6 Y138.214 E25.02049
G1 X131.205 Y139.821 E25.07553
G1 X130.312 Y141.542 E25.14002
G1 X128.997 Y142.77 E25.19986
G1 X127.281 Y143.794 E25.26633
G1 X125.784 Y144.04 E25.31678
G1 X94.286 Y144.1 E26.36441
G1 X92.679 Y143.705 E26.41945
G1 X90.958 Y142.812 E26.48394
G1 X89.73 Y141.497 E26.54378
G1 X88.706 Y139.781 E26.61025
G1 X88.46 Y138.284 E26.66071
G1 X88.4 Y81.786 E28.53984
G1 X88.795 Y80.179 E28.59488
G1 X89.688 Y78.458 E28.65937
G0 F6000 X90.011 Y78.703
G1 F900 X91.245 Y77.551 E28.71551
G1 X92.857 Y76.589 E28.77795
G1 X94.281 Y76.355 E28.82595
G1 X125.668 Y76.3 E29.86989
G1 X127.178 Y76.671 E29.9216
G1 X128.797 Y77.511 E29.98227
G1 X129.949 Y78.745 E30.03841
G1 X130.911 Y80.357 E30.10085
G1 X131.145 Y81.781 E30.14885
G1 X131.2 Y138.168 E32.02429
G1 X130.829 Y139.678 E32.07601
G1 X129.989 Y141.297 E32.13667
G1 X128.755 Y142.449 E32.19282
G1 X127.143 Y143.411 E32.25526
G1 X125.719 Y143.645 E32.30325
G1 X94.332 Y143.7 E33.34719
G1 X92.822 Y143.329 E33.39891
G1 X91.203 Y142.489 E33.45957
G1 X90.051 Y141.255 E33.51572
G1 X89.089 Y139.643 E33.57816
G1 X88.855 Y138.219 E33.62615
G1 X88.8 Y81.832 E35.50159
G1 X89.171 Y80.322 E35.55331
G1 X90.011 Y78.703 E35.61398
G0 F6000 X90.334 Y78.948
G1 F900 X91.487 Y77.872 E35.66643
G1 X92.995 Y76.972 E35.72484
G1 X94.346 Y76.75 E35.77038
G1 X125.621 Y76.7 E36.81059
G1 X127.036 Y77.048 E36.85905
G1 X128.552 Y77.834 E36.91585
G1 X129.628 Y78.987 E36.9683
G1 X130.528 Y80.495 E37.02671
G1 X130.75 Y81.846 E37.07225
G1 X130.8 Y138.121 E38.94397
G1 X130.452 Y139.536 E38.99243
G1 X129.666 Y141.052 E39.04923
G1 X128.513 Y142.128 E39.10168
G1 X127.005 Y143.028 E39.16009
G1 X125.654 Y143.25 E39.20563
G1 X94.379 Y143.3 E40.24584
G1 X92.964 Y142.952 E40.29431
G1 X91.448 Y142.166 E40.3511
G1 X90.372 Y141.013 E40.40356
G1 X89.472 Y139.505 E40.46197
G1 X89.25 Y138.154 E40.5075
G1 X89.2 Y81.879 E42.37922
G1 X89.548 Y80.464 E42.42768
G1 X90.334 Y78.948 E42.48448
G0 F6000 X90.657 Y79.193
G1 F900 X91.729 Y78.193 E42.53324
G1 X93.133 Y77.355 E42.58762
G1 X94.411 Y77.145 E42.6307
G1 X125.575 Y77.1 E43.66722
G1 X126.893 Y77.424 E43.71236
G1 X128.307 Y78.157 E43.76533
G1 X129.307 Y79.229 E43.81409
G1 X130.145 Y80.633 E43.86848
G1 X130.355 Y81.911 E43.91155
G1 X130.4 Y138.075 E45.77958
G1 X130.076 Y139.393 E45.82472
G1 X129.343 Y140.807 E45.87769
G1 X128.271 Y141.807 E45.92645
G1 X126.867 Y142.645 E45.98083
G1 X125.589 Y142.855 E46.02391
G1 X94.425 Y142.9 E47.06043
G1 X93.107 Y142.576 E47.10557
G1 X91.693 Y141.843 E47.15855
G1 X90.693 Y140.771 E47.20731
G1 X89.855 Y139.367 E47.26169
G1 X89.645 Y138.089 E47.30476
G1 X89.6 Y81.925 E49.17279
G1 X89.924 Y80.607 E49.21793
G1 X90.657 Y79.193 E49.2709
G0 F6000 X90.979 Y79.44
G1 F900 X91.974 Y78.512 E49.31616
G1 X93.271 Y77.738 E49.36639
G1 X94.476 Y77.54 E49.40701
G1 X125.529 Y77.5 E50.43984
G1 X126.75 Y77.8 E50.48165
G1 X128.06 Y78.479 E50.53073
G1 X128.988 Y79.474 E50.57598
G1 X129.762 Y80.771 E50.62622
G1 X129.96 Y81.976 E50.66684
G1 X130 Y138.029 E52.53117
G1 X129.7 Y139.25 E52.57298
G1 X129.021 Y140.56 E52.62206
G1 X128.026 Y141.488 E52.66731
G1 X126.729 Y142.262 E52.71755
G1 X125.524 Y142.46 E52.75817
G1 X94.471 Y142.5 E53.79099
G1 X93.25 Y142.2 E53.83281
G1 X91.94 Y141.521 E53.88189
G1 X91.012 Y140.526 E53.92714
G1 X90.238 Y139.229 E53.97738
G1 X90.04 Y138.024 E54.01799
G1 X90 Y81.971 E55.88232
G1 X90.3 Y80.75 E55.92414
G1 X90.979 Y79.44 E55.97322
G0 F6000 X91.301 Y79.687
G1 F900 X92.216 Y78.834 E56.01482
G1 X93.411 Y78.121 E56.06111
G1 X94.541 Y77.935 E56.0992
G1 X125.483 Y77.9 E57.12833
G1 X126.607 Y78.176 E57.16683
G1 X127.813 Y78.801 E57.21201
G1 X128.666 Y79.716 E57.25361
G1 X129.379 Y80.911 E57.29989
G1 X129.565 Y82.041 E57.33798
G1 X129.6 Y137.983 E59.19862
G1 X129.324 Y139.107 E59.23712
G1 X128.699 Y140.313 E59.2823
G1 X127.784 Y141.166 E59.3239
G1 X126.589 Y141.879 E59.37019
G1 X125.459 Y142.065 E59.40828
G1 X94.517 Y142.1 E60.43741
G1 X93.393 Y141.824 E60.47591
G1 X92.187 Y141.199 E60.52108
G1 X91.334 Y140.284 E60.56269
G1 X90.621 Y139.089 E60.60897
G1 X90.435 Y137.959 E60.64706
G1 X90.4 Y82.017 E62.5077
G1 X90.676 Y80.893 E62.5462
G1 X91.301 Y79.687 E62.59138
G0 F6000 X91.623 Y79.934
G1 F900 X92.458 Y79.156 E62.62933
G1 X93.551 Y78.504 E62.67166
G1 X94.606 Y78.33 E62.70723
G1 X125.436 Y78.3 E63.73264
G1 X126.465 Y78.553 E63.76788
G1 X127.566 Y79.123 E63.80912
G1 X128.344 Y79.958 E63.84708
G1 X128.996 Y81.051 E63.88941
G1 X129.17 Y82.106 E63.92497
G1 X129.2 Y137.936 E65.78188
G1 X128.947 Y138.965 E65.81713
G1 X128.377 Y140.066 E65.85836
G1 X127.542 Y140.844 E65.89632
G1 X126.449 Y141.496 E65.93865
G1 X125.394 Y141.67 E65.97422
G1 X94.564 Y141.7 E66.99963
G1 X93.535 Y141.447 E67.03487
G1 X92.434 Y140.877 E67.07611
G1 X91.656 Y140.042 E67.11407
G1 X91.004 Y138.949 E67.1564
G1 X90.83 Y137.894 E67.19196
G1 X90.8 Y82.064 E69.04887
G1 X91.053 Y81.035 E69.08412
G1 X91.623 Y79.934 E69.12535
G0 F6000 X91.945 Y80.181
G1 F900 X92.7 Y79.478 E69.15966
G1 X93.691 Y78.887 E69.19804
G1 X94.671 Y78.725 E69.23108
G1 X125.39 Y78.7 E70.2528
G1 X126.322 Y78.929 E70.28472
G1 X127.319 Y79.445 E70.32206
G1 X128.022 Y80.2 E70.35637
G1 X128.613 Y81.191 E70.39474
G1 X128.775 Y82.171 E70.42778
G1 X128.8 Y137.89 E72.281
G1 X128.571 Y138.822 E72.31292
G1 X128.055 Y139.819 E72.35026
G1 X127.3 Y140.522 E72.38457
G1 X126.309 Y141.113 E72.42295
G1 X125.329 Y141.275 E72.45599
G1 X94.61 Y141.3 E73.47771
G1 X93.678 Y141.071 E73.50963
G1 X92.681 Y140.555 E73.54697
G1 X91.978 Y139.8 E73.58128
G1 X91.387 Y138.809 E73.61965
G1 X91.225 Y137.829 E73.65269
G1 X91.2 Y82.11 E75.50591
G1 X91.429 Y81.178 E75.53783
G1 X91.945 Y80.181 E75.57517
G0 F6000 X92.268 Y80.426
G1 F900 X92.939 Y79.802 E75.60565
G1 X93.831 Y79.27 E75.64019
G1 X94.736 Y79.12 E75.6707
G1 X125.344 Y79.1 E76.68873
G1 X126.179 Y79.305 E76.71733
G1 X127.074 Y79.768 E76.75084
G1 X127.698 Y80.439 E76.78132
G1 X128.23 Y81.331 E76.81586
G1 X128.38 Y82.236 E76.84637
G1 X128.4 Y137.844 E78.6959
G1 X128.195 Y138.679 E78.7245
G1 X127.732 Y139.574 E78.75802
G1 X127.061 Y140.198 E78.78849
G1 X126.169 Y140.73 E78.82304
G1 X125.264 Y140.88 E78.85355
G1 X94.656 Y140.9 E79.87157
G1 X93.821 Y140.695 E79.90017
G1 X92.926 Y140.232 E79.93369
G1 X92.302 Y139.561 E79.96416
G1 X91.77 Y138.669 E79.99871
G1 X91.62 Y137.764 E80.02922
G1 X91.6 Y82.156 E81.87875
G1 X91.805 Y81.321 E81.90734
G1 X92.268 Y80.426 E81.94086
G0 F6000 X92.591 Y80.671
G1 F900 X93.178 Y80.126 E81.9675
G1 X93.971 Y79.653 E81.99821
G1 X94.802 Y79.515 E82.02623
G1 X125.298 Y79.5 E83.04053
G1 X126.036 Y79.681 E83.0658
G1 X126.829 Y80.091 E83.0955
G1 X127.374 Y80.678 E83.12214
G1 X127.847 Y81.471 E83.15285
G1 X127.985 Y82.302 E83.18086
G1 X128 Y137.798 E85.02667
G1 X127.819 Y138.536 E85.05194
G1 X127.409 Y139.329 E85.08163
G1 X126.822 Y139.874 E85.10828
G1 X126.029 Y140.347 E85.13899
G1 X125.198 Y140.485 E85.167
G1 X94.702 Y140.5 E86.18131
G1 X93.964 Y140.319 E86.20658
G1 X93.171 Y139.909 E86.23627
G1 X92.626 Y139.322 E86.26291
G1 X92.153 Y138.529 E86.29362
G1 X92.015 Y137.698 E86.32164
G1 X92 Y82.202 E88.16745
G1 X92.181 Y81.464 E88.19272
G1 X92.591 Y80.671 E88.22241
G0 F6000 X92.914 Y80.916
G1 F900 X93.417 Y80.45 E88.24522
G1 X94.111 Y80.036 E88.27209
G1 X94.868 Y79.91 E88.29762
G1 X125.248 Y79.9 E89.30806
G1 X125.897 Y80.059 E89.33029
G1 X126.584 Y80.414 E89.35601
G1 X127.05 Y80.917 E89.37881
G1 X127.464 Y81.611 E89.40569
G1 X127.59 Y82.368 E89.43121
G1 X127.6 Y137.748 E91.27316
G1 X127.441 Y138.397 E91.29538
G1 X127.086 Y139.084 E91.3211
G1 X126.583 Y139.55 E91.34391
G1 X125.889 Y139.964 E91.37079
G1 X125.132 Y140.09 E91.39631
G1 X94.752 Y140.1 E92.40676
G1 X94.103 Y139.941 E92.42898
G1 X93.416 Y139.586 E92.4547
G1 X92.95 Y139.083 E92.47751
G1 X92.536 Y138.389 E92.50438
G1 X92.41 Y137.632 E92.52991
G1 X92.4 Y82.252 E94.37185
G1 X92.559 Y81.603 E94.39408
G1 X92.914 Y80.916 E94.4198
G0 F6000 X93.237 Y81.162
G1 F900 X93.656 Y80.774 E94.43879
G1 X94.251 Y80.419 E94.46184
G1 X94.934 Y80.305 E94.48487
G1 X125.198 Y80.3 E95.49145
G1 X125.758 Y80.437 E95.51063
G1 X126.338 Y80.737 E95.53235
G1 X126.726 Y81.156 E95.55134
G1 X127.081 Y81.751 E95.57438
G1 X127.195 Y82.434 E95.59741
G1 X127.2 Y137.698 E97.4355
G1 X127.063 Y138.258 E97.45468
G1 X126.763 Y138.838 E97.4764
G1 X126.344 Y139.226 E97.49539
G1 X125.749 Y139.581 E97.51843
G1 X125.066 Y139.695 E97.54146
G1 X94.802 Y139.7 E98.54805
G1 X94.242 Y139.563 E98.56722
G1 X93.662 Y139.263 E98.58894
G1 X93.274 Y138.844 E98.60794
G1 X92.919 Y138.249 E98.63098
G1 X92.805 Y137.566 E98.65401
G1 X92.8 Y82.302 E100.4921
G1 X92.937 Y81.742 E100.51127
G1 X93.237 Y81.162 E100.53299
G0 F6000 X93.56 Y81.408
G1 F900 X93.898 Y81.095 E100.54832
G1 X94.389 Y80.802 E100.56733
G1 X95 Y80.7 E100.58794
G1 X125.148 Y80.7 E101.59066
G1 X125.619 Y80.815 E101.60679
G1 X126.092 Y81.06 E101.62451
G1 X126.405 Y81.398 E101.63983
G1 X126.698 Y81.889 E101.65884
G1 X126.8 Y82.5 E101.67945
G1 X126.8 Y137.648 E103.51368
G1 X126.685 Y138.119 E103.5298
G1 X126.44 Y138.592 E103.54752
G1 X126.102 Y138.905 E103.56284
G1 X125.611 Y139.198 E103.58186
G1 X125 Y139.3 E103.60246
G1 X94.852 Y139.3 E104.60519
G1 X94.381 Y139.185 E104.62132
G1 X93.908 Y138.94 E104.63903
G1 X93.595 Y138.602 E104.65435
G1 X93.302 Y138.111 E104.67337
G1 X93.2 Y137.5 E104.69397
G1 X93.2 Y82.352 E106.5282
G1 X93.315 Y81.881 E106.54433
G1 X93.56 Y81.408 E106.56205
G0 F6000 X93.883 Y81.654
G1 F900 X94.14 Y81.416 E106.5737
G1 X94.527 Y81.185 E106.58869
G1 X95 Y81.1 E106.60467
G1 X125.098 Y81.1 E107.60574
G1 X125.48 Y81.193 E107.61881
G1 X125.846 Y81.383 E107.63253
G1 X126.084 Y81.64 E107.64418
G1 X126.315 Y82.027 E107.65917
G1 X126.4 Y82.5 E107.67515
G1 X126.4 Y137.598 E109.50772
G1 X126.307 Y137.98 E109.5208
G1 X126.117 Y138.346 E109.53451
G1 X125.86 Y138.584 E109.54616
G1 X125.473 Y138.815 E109.56115
G1 X125 Y138.9 E109.57714
G1 X94.902 Y138.9 E110.5782
G1 X94.52 Y138.807 E110.59128
G1 X94.154 Y138.617 E110.60499
G1 X93.916 Y138.36 E110.61664
G1 X93.685 Y137.973 E110.63163
G1 X93.6 Y137.5 E110.64762
G1 X93.6 Y82.402 E112.48018
G1 X93.693 Y82.02 E112.49326
G1 X93.883 Y81.654 E112.50698
G0 F6000 X94.207 Y81.899
G1 F900 X94.345 Y81.76 E112.51349
G1 X94.672 Y81.565 E112.52615
G1 X95 Y81.5 E112.53728
G1 X125.049 Y81.5 E113.53671
G1 X125.338 Y81.57 E113.5466
G1 X125.601 Y81.707 E113.55646
G1 X125.74 Y81.845 E113.56298
G1 X125.935 Y82.172 E113.57564
G1 X126 Y82.5 E113.58676
G1 X126 Y137.549 E115.4177
G1 X125.93 Y137.838 E115.42759
G1 X125.793 Y138.101 E115.43745
G1 X125.655 Y138.24 E115.44397
G1 X125.328 Y138.435 E115.45663
G1 X125 Y138.5 E115.46775
G1 X94.951 Y138.5 E116.46718
G1 X94.662 Y138.43 E116.47707
G1 X94.399 Y138.293 E116.48694
G1 X94.26 Y138.155 E116.49345
G1 X94.065 Y137.828 E116.50612
G1 X94 Y137.5 E116.51724
G1 X94 Y82.451 E118.34817
G1 X94.07 Y82.162 E118.35806
G1 X94.207 Y81.899 E118.36793
G0 F6000 X94.839 Y82.381
G1 F900 X95 Y82.3 E118.37392
G1 X125 Y82.3 E119.37173
G1 X125.119 Y82.339 E119.37589
G1 X125.2 Y82.5 E119.38189
G1 X125.2 Y137.5 E121.21119
G1 X125.161 Y137.619 E121.21536
G1 X125 Y137.7 E121.22135
G1 X95 Y137.7 E122.21916
G1 X94.881 Y137.661 E122.22332
G1 X94.8 Y137.5 E122.22932
G1 X94.8 Y82.5 E124.05862
G1 X94.839 Y82.381 E124.06279
G0 F6000 X94.459 Y82.256
G1 F900 X94.55 Y82.104 E124.06868
G1 X94.82 Y81.943 E124.07914
G1 X95 Y81.9 E124.08529
G1 X125 Y81.9 E125.0831
G1 X125.244 Y81.959 E125.09145
G1 X125.396 Y82.05 E125.09734
G1 X125.557 Y82.32 E125.10779
G1 X125.6 Y82.5 E125.11395
G1 X125.6 Y137.5 E126.94326
G1 X125.541 Y137.744 E126.95161
G1 X125.45 Y137.896 E126.9575
G1 X125.18 Y138.057 E126.96795
G1 X125 Y138.1 E126.97411
G1 X95 Y138.1 E127.97191
G1 X94.756 Y138.041 E127.98026
G1 X94.604 Y137.95 E127.98615
G1 X94.443 Y137.68 E127.99661
G1 X94.4 Y137.5 E128.00276
G1 X94.4 Y82.5 E129.83207
G1 X94.459 Y82.256 E129.84042
G1 F2100 E123.84042
;MESH:hex-holder.stl
G0 F6000 X95.424 Y82.924
G0 X96.531 Y86.51
;TYPE:WALL-INNER
G1 F2100 E129.84042
G1 F566.9 X96.504 Y86.912 E129.8617
G1 F592.1 X96.504 Y87.336 E129.88313
G1 F580.6 X96.515 Y87.597 E129.8966
G0 F6000 X97.892 Y88.9
G0 X98.36 Y89.258
G0 X99.937 Y89.736
G1 F900 X99.412 Y89.736 E129.91406
G1 X99.149 Y89.702 E129.92288
G1 X98.737 Y89.59 E129.93708
G1 X98.301 Y89.405 E129.95283
G1 X97.766 Y88.996 E129.97523
G1 X97.467 Y88.616 E129.99131
G1 X97.255 Y88.252 E130.00532
G1 X97.155 Y88.011 E130.014
G1 X97.008 Y87.452 E130.03323
G1 X97.008 Y86.912 E130.05119
G1 X97.043 Y86.649 E130.06001
G1 X97.155 Y86.237 E130.07421
G1 X97.345 Y85.798 E130.09012
G1 X97.757 Y85.26 E130.11266
G1 X98.293 Y84.845 E130.13521
G1 X98.737 Y84.655 E130.15127
G1 X99.296 Y84.508 E130.17049
G1 X99.836 Y84.508 E130.18845
G1 X100.099 Y84.543 E130.19728
