;FLAVOR:Marlin
;TIME:15635
;Filament used: 11.9043m
;Layer height: 0.2
;MINX:79.2
;MINY:76.2
;MINZ:0.2
;MAXX:169.154
;MAXY:176.8
;MAXZ:58
;TARGET_MACHINE.NAME:Creality Ender-5
;Generated with Cura_SteamEngine 5.10.2
M140 S70
M105
M190 S70
M104 S240
M105
M109 S240
M201 X500.00 Y500.00 Z100.00 E5000.00 ;Setup machine max acceleration
M203 X500.00 Y500.00 Z10.00 E50.00 ;Setup machine max feedrate
M204 P500.00 R1000.00 T500.00 ;Setup Print/Retract/Travel acceleration
M205 X8.00 Y8.00 Z0.40 E5.00 ;Setup Jerk
M220 S100 ;Reset Feedrate
M221 S100 ;Reset Flowrate

G28 ;Home

G92 E0 ;Reset Extruder
G1 Z2.0 F3000 ;Move Z Axis up
G1 X10.1 Y20 Z0.28 F5000.0 ;Move to start position
G1 X10.1 Y200.0 Z0.28 F1500.0 E15 ;Draw the first line
G1 X10.4 Y200.0 Z0.28 F5000.0 ;Move to side a little
G1 X10.4 Y20 Z0.28 F1500.0 E30 ;Draw the second line
G92 E0 ;Reset Extruder
G1 Z2.0 F3000 ;Move Z Axis up

M82 ;absolute extrusion mode
G92 E0
G92 E0
G1 F2100 E-6
;LAYER_COUNT:290
;LAYER:0
M107
G0 F6000 X80.719 Y79.223 Z0.2
;TYPE:SKIRT
G1 F2100 E0
G1 F900 X82.28 Y77.764 E0.07107
G1 X84.303 Y76.557 E0.14942
G1 X86.021 Y76.275 E0.20732
G1 X133.853 Y76.2 E1.79822
G1 X135.749 Y76.666 E1.86316
G1 X137.777 Y77.719 E1.93916
G1 X139.236 Y79.28 E2.01023
G1 X140.443 Y81.303 E2.08858
G1 X140.725 Y83.021 E2.14649
G1 X140.78 Y103.242 E2.81904
G1 X161.858 Y103.2 E3.5201
G1 X163.746 Y103.664 E3.58477
G1 X165.76 Y104.704 E3.66015
G1 X167.186 Y106.224 E3.72948
G1 X168.176 Y107.84 E3.79251
G1 X168.419 Y108.391 E3.81254
G1 X168.799 Y110.653 E3.88883
G1 X168.877 Y112.458 E3.94892
G1 X169.1 Y114.139 E4.00532
G1 X169.154 Y115.647 E4.05551
G1 X168.903 Y117.04 E4.10258
G1 X167.899 Y119.344 E4.18617
G1 X167.005 Y120.736 E4.2412
G1 X165.797 Y122.2 E4.30433
G1 X164.859 Y123.139 E4.34847
G1 X164.491 Y123.633 E4.36896
G1 X162.631 Y124.949 E4.44474
G1 X160.24 Y125.8 E4.52915
G1 X154.108 Y125.8 E4.73311
G1 X152.286 Y125.355 E4.79549
G1 X151.8 Y125.101 E4.81373
G1 X151.8 Y150.853 E5.67024
G1 X151.334 Y152.749 E5.73518
G1 X150.281 Y154.777 E5.81118
G1 X148.706 Y156.249 E5.88288
G1 X146.99 Y157.247 E5.94891
G1 X146.326 Y157.506 E5.97261
G1 X144.635 Y157.756 E6.02947
G1 X141.675 Y157.792 E6.12792
G1 X141.226 Y158.208 E6.14828
G1 X138.828 Y159.481 E6.23858
G1 X136.4 Y159.995 E6.32113
G1 X132.802 Y160 E6.4408
G1 X129.507 Y158.738 E6.55815
G1 X127.44 Y157.024 E6.64746
G1 X127.259 Y156.8 E6.65704
G1 X120.8 Y156.8 E6.87187
G1 X120.8 Y169.853 E7.30601
G1 X120.334 Y171.749 E7.37095
G1 X119.281 Y173.777 E7.44695
G1 X117.705 Y175.251 E7.51872
G1 X115.981 Y176.273 E7.58538
G1 X115.495 Y176.477 E7.60291
G1 X113.657 Y176.752 E7.66473
G1 X108.123 Y176.8 E7.84879
G1 X106.296 Y176.355 E7.91134
G1 X104.223 Y175.283 E7.98896
G1 X102.764 Y173.72 E8.06007
G1 X101.557 Y171.697 E8.13843
G1 X101.275 Y169.979 E8.19633
G1 X101.2 Y148.946 E8.8959
G1 X101.668 Y147.044 E8.96104
G1 X102.269 Y145.894 E9.0042
G1 X102.283 Y145.807 E9.00713
G1 X102.661 Y144.262 E9.06003
G1 X102.904 Y143.791 E9.07766
G1 X86.147 Y143.8 E9.635
G1 X84.251 Y143.334 E9.69994
G1 X82.223 Y142.281 E9.77594
G1 X80.764 Y140.72 E9.84701
G1 X79.557 Y138.697 E9.92536
G1 X79.275 Y136.979 E9.98327
G1 X79.2 Y83.147 E11.77373
G1 X79.666 Y81.251 E11.83866
G1 X80.719 Y79.223 E11.91467
G0 F6000 X81.042 Y79.468
G1 F900 X82.519 Y78.088 E11.9819
G1 X84.443 Y76.94 E12.05642
G1 X86.086 Y76.67 E12.1118
G1 X133.807 Y76.6 E13.699
G1 X135.606 Y77.042 E13.76062
G1 X137.532 Y78.042 E13.8328
G1 X138.912 Y79.519 E13.90003
G1 X140.06 Y81.443 E13.97455
G1 X140.33 Y83.086 E14.02993
G1 X140.381 Y103.643 E14.71366
G1 X161.812 Y103.6 E15.42646
G1 X163.603 Y104.04 E15.4878
G1 X165.514 Y105.027 E15.55933
G1 X166.866 Y106.468 E15.62505
G1 X167.81 Y108.002 E15.68496
G1 X168.034 Y108.509 E15.7034
G1 X168.399 Y110.67 E15.77629
G1 X168.478 Y112.495 E15.83705
G1 X168.703 Y114.192 E15.89398
G1 X168.752 Y115.618 E15.94144
G1 X168.517 Y116.923 E15.98554
G1 X167.532 Y119.184 E16.06757
G1 X166.696 Y120.481 E16.11889
G1 X165.488 Y121.945 E16.18202
G1 X164.555 Y122.876 E16.22586
G1 X164.208 Y123.343 E16.24521
G1 X162.444 Y124.591 E16.31708
G1 X160.171 Y125.4 E16.39733
G1 X154.158 Y125.4 E16.59732
G1 X152.428 Y124.977 E16.65656
G1 X151.4 Y124.44 E16.69513
G1 X151.4 Y150.807 E17.5721
G1 X150.958 Y152.606 E17.63372
G1 X149.958 Y154.532 E17.70589
G1 X148.466 Y155.926 E17.77381
G1 X146.844 Y156.874 E17.83629
G1 X146.222 Y157.117 E17.8585
G1 X144.63 Y157.356 E17.91205
G1 X141.516 Y157.394 E18.01563
G1 X140.993 Y157.879 E18.03935
G1 X138.689 Y159.102 E18.12611
G1 X136.359 Y159.595 E18.20532
G1 X132.877 Y159.6 E18.32113
G1 X129.71 Y158.387 E18.43393
G1 X127.728 Y156.744 E18.51956
G1 X127.451 Y156.4 E18.53425
G1 X120.4 Y156.4 E18.76876
G1 X120.4 Y169.807 E19.21468
G1 X119.958 Y171.606 E19.2763
G1 X118.958 Y173.532 E19.34848
G1 X117.466 Y174.927 E19.41641
G1 X115.826 Y175.904 E19.4799
G1 X115.387 Y176.088 E19.49574
G1 X113.598 Y176.356 E19.5559
G1 X108.171 Y176.4 E19.73641
G1 X106.435 Y175.977 E19.79584
G1 X104.468 Y174.959 E19.8695
G1 X103.088 Y173.481 E19.93676
G1 X101.94 Y171.557 E20.01128
G1 X101.67 Y169.914 E20.06666
G1 X101.6 Y148.992 E20.76253
G1 X102.044 Y147.186 E20.82439
G1 X102.655 Y146.017 E20.86826
G1 X102.672 Y145.902 E20.87212
G1 X103.039 Y144.401 E20.92352
G1 X103.562 Y143.391 E20.96135
G1 X86.193 Y143.4 E21.53904
G1 X84.394 Y142.958 E21.60066
G1 X82.468 Y141.958 E21.67284
G1 X81.088 Y140.481 E21.74007
G1 X79.94 Y138.557 E21.81459
G1 X79.67 Y136.914 E21.86997
G1 X79.6 Y83.193 E23.65673
G1 X80.042 Y81.394 E23.71835
G1 X81.042 Y79.468 E23.79053
G0 F6000 X81.365 Y79.713
G1 F900 X82.761 Y78.409 E23.85406
G1 X84.581 Y77.323 E23.92456
G1 X86.151 Y77.065 E23.97747
G1 X133.76 Y77 E25.56096
G1 X135.464 Y77.419 E25.61932
G1 X137.287 Y78.365 E25.68763
G1 X138.591 Y79.761 E25.75117
G1 X139.677 Y81.581 E25.82166
G1 X139.935 Y83.151 E25.87458
G1 X139.982 Y104.044 E26.56948
G1 X161.765 Y104 E27.29399
G1 X163.461 Y104.417 E27.35208
G1 X165.268 Y105.35 E27.41972
G1 X166.546 Y106.712 E27.48184
G1 X167.469 Y108.212 E27.54042
G1 X167.648 Y108.626 E27.55542
G1 X167.999 Y110.687 E27.62496
G1 X168.079 Y112.532 E27.68638
G1 X168.306 Y114.245 E27.74385
G1 X168.351 Y115.588 E27.78855
G1 X168.131 Y116.806 E27.82971
G1 X167.165 Y119.024 E27.91018
G1 X166.387 Y120.226 E27.9578
G1 X165.179 Y121.69 E28.02093
G1 X164.249 Y122.617 E28.0646
G1 X163.925 Y123.053 E28.08267
G1 X162.257 Y124.233 E28.15062
G1 X160.102 Y125 E28.2267
G1 X154.208 Y125 E28.42274
G1 X152.57 Y124.599 E28.47883
G1 X151 Y123.779 E28.53774
G1 X151 Y150.76 E29.43513
G1 X150.581 Y152.464 E29.4935
G1 X149.635 Y154.287 E29.56181
G1 X148.228 Y155.602 E29.62586
G1 X146.698 Y156.501 E29.68488
G1 X146.117 Y156.728 E29.70563
G1 X144.571 Y156.96 E29.75763
G1 X141.357 Y156.996 E29.86453
G1 X140.759 Y157.551 E29.89167
G1 X138.552 Y158.722 E29.97476
G1 X136.318 Y159.195 E30.05071
G1 X132.952 Y159.2 E30.16267
G1 X129.913 Y158.036 E30.27091
G1 X128.014 Y156.462 E30.35294
G1 X127.643 Y156 E30.37265
G1 X120 Y156 E30.62686
G1 X120 Y169.76 E31.08452
G1 X119.581 Y171.464 E31.14288
G1 X118.635 Y173.287 E31.21119
G1 X117.227 Y174.603 E31.27529
G1 X115.621 Y175.56 E31.33747
G1 X115.281 Y175.699 E31.34969
G1 X113.539 Y175.96 E31.40828
G1 X108.219 Y176 E31.58522
G1 X106.574 Y175.599 E31.64154
G1 X104.713 Y174.635 E31.71125
G1 X103.409 Y173.239 E31.77478
G1 X102.323 Y171.419 E31.84528
G1 X102.065 Y169.849 E31.89819
G1 X102 Y149.039 E32.59034
G1 X102.42 Y147.331 E32.64884
G1 X103.043 Y146.139 E32.69358
G1 X103.061 Y145.997 E32.69834
G1 X103.417 Y144.54 E32.74822
G1 X104.22 Y142.991 E32.80625
G1 X86.24 Y143 E33.40427
G1 X84.536 Y142.581 E33.46263
G1 X82.713 Y141.635 E33.53095
G1 X81.409 Y140.239 E33.59448
G1 X80.323 Y138.419 E33.66497
G1 X80.065 Y136.849 E33.71789
G1 X80 Y83.24 E35.50094
G1 X80.419 Y81.536 E35.5593
G1 X81.365 Y79.713 E35.62761
G0 F6000 X81.688 Y79.958
G1 F900 X83.003 Y78.73 E35.68745
G1 X84.719 Y77.706 E35.75392
G1 X86.216 Y77.46 E35.80437
G1 X133.714 Y77.4 E37.38417
G1 X135.321 Y77.795 E37.43921
G1 X137.042 Y78.688 E37.50369
G1 X138.27 Y80.003 E37.56354
G1 X139.294 Y81.719 E37.63
G1 X139.54 Y83.216 E37.68046
G1 X139.583 Y104.445 E38.38654
G1 X161.719 Y104.4 E39.12279
G1 X163.318 Y104.793 E39.17755
G1 X165.022 Y105.673 E39.24134
G1 X166.226 Y106.956 E39.29986
G1 X167.128 Y108.422 E39.35711
G1 X167.262 Y108.742 E39.36865
G1 X167.599 Y110.704 E39.43486
G1 X167.68 Y112.567 E39.49688
G1 X167.909 Y114.297 E39.55492
G1 X167.95 Y115.558 E39.59689
G1 X167.745 Y116.691 E39.63518
G1 X166.829 Y118.807 E39.71187
G1 X166.078 Y119.971 E39.75795
G1 X164.87 Y121.435 E39.82107
G1 X163.946 Y122.354 E39.86442
G1 X163.642 Y122.763 E39.88137
G1 X162.07 Y123.875 E39.94541
G1 X160.033 Y124.6 E40.01733
G1 X154.258 Y124.6 E40.2094
G1 X152.708 Y124.221 E40.26248
G1 X151.071 Y123.365 E40.32392
G1 X150.6 Y122.883 E40.34633
G1 X150.6 Y150.714 E41.272
G1 X150.205 Y152.321 E41.32704
G1 X149.312 Y154.042 E41.39152
G1 X147.986 Y155.281 E41.45188
G1 X146.552 Y156.128 E41.50728
G1 X146.012 Y156.339 E41.52656
G1 X144.512 Y156.564 E41.57701
G1 X141.198 Y156.598 E41.68724
G1 X140.523 Y157.223 E41.71783
G1 X138.413 Y158.343 E41.79729
G1 X136.277 Y158.795 E41.8699
G1 X133.027 Y158.8 E41.978
G1 X130.116 Y157.685 E42.08168
G1 X128.303 Y156.182 E42.16001
G1 X127.835 Y155.6 E42.18485
G1 X119.6 Y155.6 E42.45874
G1 X119.6 Y169.714 E42.92818
G1 X119.205 Y171.321 E42.98322
G1 X118.312 Y173.042 E43.0477
G1 X116.988 Y174.279 E43.10797
G1 X115.416 Y175.216 E43.16884
G1 X115.174 Y175.311 E43.17748
G1 X113.536 Y175.56 E43.23259
G1 X108.267 Y175.6 E43.40784
G1 X106.713 Y175.221 E43.46104
G1 X104.958 Y174.312 E43.52678
G1 X103.73 Y172.997 E43.58662
G1 X102.706 Y171.281 E43.65309
G1 X102.46 Y169.784 E43.70355
G1 X102.4 Y149.086 E44.39197
G1 X102.796 Y147.476 E44.44711
G1 X103.431 Y146.26 E44.49274
G1 X103.45 Y146.092 E44.49836
G1 X103.795 Y144.679 E44.54674
G1 X104.688 Y142.958 E44.61123
G1 X105.081 Y142.591 E44.62911
G1 X86.286 Y142.6 E45.25424
G1 X84.679 Y142.205 E45.30928
G1 X82.958 Y141.312 E45.37376
G1 X81.73 Y139.997 E45.43361
G1 X80.706 Y138.281 E45.50007
G1 X80.46 Y136.784 E45.55053
G1 X80.4 Y83.286 E47.32988
G1 X80.795 Y81.679 E47.38492
G1 X81.688 Y79.958 E47.44941
G0 F6000 X82.011 Y80.203
G1 F900 X83.245 Y79.051 E47.50556
G1 X84.857 Y78.089 E47.56799
G1 X86.281 Y77.855 E47.61599
G1 X133.668 Y77.8 E49.19209
G1 X135.178 Y78.171 E49.24381
G1 X136.797 Y79.011 E49.30447
G1 X137.949 Y80.245 E49.36062
G1 X138.911 Y81.857 E49.42306
G1 X139.145 Y83.281 E49.47105
G1 X139.184 Y104.876 E50.18931
G1 X139.409 Y104.845 E50.19686
G1 X161.673 Y104.8 E50.93737
G1 X163.175 Y105.169 E50.98881
G1 X164.776 Y105.996 E51.04874
G1 X165.909 Y107.203 E51.1038
G1 X166.759 Y108.577 E51.15754
G1 X166.876 Y108.856 E51.1676
G1 X167.199 Y110.721 E51.23056
G1 X167.275 Y112.474 E51.28892
G1 X167.3 Y112.75 E51.29813
G1 X167.512 Y114.35 E51.35181
G1 X167.549 Y115.528 E51.39101
G1 X167.359 Y116.578 E51.4265
G1 X166.492 Y118.591 E51.4994
G1 X165.769 Y119.716 E51.54388
G1 X164.561 Y121.18 E51.60701
G1 X163.646 Y122.088 E51.64989
G1 X163.361 Y122.472 E51.66579
G1 X161.883 Y123.517 E51.726
G1 X159.964 Y124.2 E51.79374
G1 X154.308 Y124.2 E51.98186
G1 X152.85 Y123.843 E52.03179
G1 X151.313 Y123.04 E52.08947
G1 X150.844 Y122.56 E52.11179
G1 X150.2 Y122.068 E52.13874
G1 X150.2 Y150.668 E53.08998
G1 X149.829 Y152.178 E53.1417
G1 X148.989 Y153.797 E53.20236
G1 X147.746 Y154.958 E53.25893
G1 X146.406 Y155.755 E53.31079
G1 X145.907 Y155.95 E53.32861
G1 X144.453 Y156.168 E53.37751
G1 X141.226 Y156.2 E53.48485
G1 X141.065 Y156.176 E53.49026
G1 X140.289 Y156.895 E53.52544
G1 X138.276 Y157.963 E53.60124
G1 X136.236 Y158.395 E53.67059
G1 X133.102 Y158.4 E53.77483
G1 X130.319 Y157.334 E53.87395
G1 X128.589 Y155.9 E53.94869
G1 X128.027 Y155.2 E53.97855
G1 X119.2 Y155.2 E54.27213
G1 X119.2 Y169.668 E54.75334
G1 X118.829 Y171.178 E54.80506
G1 X117.989 Y172.797 E54.86572
G1 X116.749 Y173.955 E54.92215
G1 X115.211 Y174.872 E54.98171
G1 X115.068 Y174.923 E54.98676
G1 X113.533 Y175.16 E55.03842
G1 X108.315 Y175.2 E55.21197
G1 X106.852 Y174.843 E55.26206
G1 X105.203 Y173.989 E55.32383
G1 X104.051 Y172.755 E55.37997
G1 X103.089 Y171.143 E55.44241
G1 X102.855 Y169.719 E55.49041
G1 X102.8 Y149.133 E56.1751
G1 X103.172 Y147.621 E56.22689
G1 X103.821 Y146.379 E56.2735
G1 X103.848 Y146.136 E56.28163
G1 X104.171 Y144.822 E56.32664
G1 X105.011 Y143.203 E56.3873
G1 X106.096 Y142.19 E56.43667
G1 X86.332 Y142.2 E57.09403
G1 X84.822 Y141.829 E57.14574
G1 X83.203 Y140.989 E57.20641
G1 X82.051 Y139.755 E57.26256
G1 X81.089 Y138.143 E57.32499
G1 X80.855 Y136.719 E57.37299
G1 X80.8 Y83.332 E59.14865
G1 X81.171 Y81.822 E59.20037
G1 X82.011 Y80.203 E59.26103
G0 F6000 X82.334 Y80.448
G1 F900 X83.487 Y79.372 E59.31349
G1 X84.995 Y78.472 E59.3719
G1 X86.346 Y78.25 E59.41743
G1 X133.621 Y78.2 E60.98981
G1 X135.036 Y78.548 E61.03827
G1 X136.552 Y79.334 E61.09507
G1 X137.628 Y80.487 E61.14752
G1 X138.528 Y81.995 E61.20593
G1 X138.75 Y83.346 E61.25147
G1 X138.785 Y105.342 E61.98306
G1 X139.41 Y105.245 E62.0041
G1 X161.626 Y105.2 E62.743
G1 X163.033 Y105.546 E62.7912
G1 X164.53 Y106.319 E62.84723
G1 X165.591 Y107.449 E62.89879
G1 X166.39 Y108.732 E62.94906
G1 X166.49 Y108.97 E62.95764
G1 X166.799 Y110.738 E63.01734
G1 X166.875 Y112.491 E63.0757
G1 X166.903 Y112.803 E63.08612
G1 X167.115 Y114.403 E63.1398
G1 X167.148 Y115.498 E63.17624
G1 X166.973 Y116.463 E63.20886
G1 X166.155 Y118.375 E63.27802
G1 X165.46 Y119.461 E63.32091
G1 X164.252 Y120.925 E63.38404
G1 X163.435 Y121.744 E63.42251
G1 X163.353 Y121.812 E63.42606
G1 X163.078 Y122.182 E63.44139
G1 X161.696 Y123.159 E63.49768
G1 X159.895 Y123.8 E63.56126
G1 X154.358 Y123.8 E63.74543
G1 X152.988 Y123.465 E63.79233
G1 X151.557 Y122.717 E63.84604
G1 X151.11 Y122.26 E63.8673
G1 X150.446 Y121.753 E63.89509
G1 X149.8 Y121.138 E63.92475
G1 X149.8 Y150.621 E64.90536
G1 X149.452 Y152.036 E64.95383
G1 X148.666 Y153.552 E65.01062
G1 X147.507 Y154.634 E65.06336
G1 X146.201 Y155.411 E65.1139
G1 X145.806 Y155.56 E65.12795
G1 X144.394 Y155.772 E65.17544
G1 X141.222 Y155.8 E65.28094
G1 X140.943 Y155.744 E65.29041
G1 X140.055 Y156.567 E65.33067
G1 X138.139 Y157.583 E65.40281
G1 X136.195 Y157.995 E65.4689
G1 X133.177 Y158 E65.56928
G1 X130.522 Y156.983 E65.66384
G1 X128.878 Y155.62 E65.73487
G1 X128.219 Y154.8 E65.76986
G1 X118.8 Y154.8 E66.08314
G1 X118.8 Y169.621 E66.57609
G1 X118.452 Y171.036 E66.62455
G1 X117.666 Y172.552 E66.68135
G1 X116.51 Y173.631 E66.73394
G1 X115.006 Y174.528 E66.79219
G1 X113.53 Y174.76 E66.84188
G1 X108.363 Y174.8 E67.01374
G1 X106.991 Y174.465 E67.06071
G1 X105.448 Y173.666 E67.11851
G1 X104.372 Y172.513 E67.17096
G1 X103.472 Y171.005 E67.22937
G1 X103.25 Y169.654 E67.27491
G1 X103.2 Y149.179 E67.95591
G1 X103.548 Y147.763 E68.00441
G1 X104.212 Y146.494 E68.05205
G1 X104.236 Y146.231 E68.06083
G1 X104.547 Y144.965 E68.10419
G1 X105.334 Y143.448 E68.16103
G1 X106.487 Y142.372 E68.21348
G1 X107.464 Y141.789 E68.25132
G1 X86.379 Y141.8 E68.95261
G1 X84.964 Y141.452 E69.00108
G1 X83.448 Y140.666 E69.05788
G1 X82.372 Y139.513 E69.11033
G1 X81.472 Y138.005 E69.16874
G1 X81.25 Y136.654 E69.21428
G1 X81.2 Y83.379 E70.98621
G1 X81.548 Y81.964 E71.03468
G1 X82.334 Y80.448 E71.09147
G0 F6000 X82.657 Y80.693
G1 F900 X83.729 Y79.693 E71.14023
G1 X85.133 Y78.855 E71.19462
G1 X86.411 Y78.645 E71.23769
G1 X133.575 Y78.6 E72.80637
G1 X134.893 Y78.924 E72.85152
G1 X136.307 Y79.657 E72.90449
G1 X137.307 Y80.729 E72.95325
G1 X138.145 Y82.133 E73.00763
G1 X138.355 Y83.411 E73.05071
G1 X138.386 Y105.813 E73.7958
G1 X139.411 Y105.645 E73.83035
G1 X161.58 Y105.6 E74.56769
G1 X162.89 Y105.922 E74.61256
G1 X164.284 Y106.642 E74.66475
G1 X165.273 Y107.695 E74.71279
G1 X166.05 Y108.943 E74.76169
G1 X166.104 Y109.084 E74.76671
G1 X166.399 Y110.755 E74.82315
G1 X166.475 Y112.508 E74.88151
G1 X166.506 Y112.856 E74.89313
G1 X166.718 Y114.456 E74.94681
G1 X166.747 Y115.467 E74.98045
G1 X166.587 Y116.35 E75.0103
G1 X165.818 Y118.16 E75.07571
G1 X165.151 Y119.206 E75.11697
G1 X163.943 Y120.67 E75.1801
G1 X163.179 Y121.436 E75.21608
G1 X163.061 Y121.534 E75.22118
G1 X162.795 Y121.892 E75.23602
G1 X161.509 Y122.801 E75.2884
