;FLAVOR:Marlin
;TIME:8922
;Filament used: 7.63974m
;Layer height: 0.2
;MINX:79.2
;MINY:76.2
;MINZ:0.2
;MAXX:140.8
;MAXY:143.8
;MAXZ:58
;TARGET_MACHINE.NAME:Creality Ender-5
;Generated with Cura_SteamEngine 5.10.2
M140 S70
M105
M190 S70
M104 S240
M105
M109 S240
M201 X500.00 Y500.00 Z100.00 E5000.00 ;Setup machine max acceleration
M203 X500.00 Y500.00 Z10.00 E50.00 ;Setup machine max feedrate
M204 P500.00 R1000.00 T500.00 ;Setup Print/Retract/Travel acceleration
M205 X8.00 Y8.00 Z0.40 E5.00 ;Setup Jerk
M220 S100 ;Reset Feedrate
M221 S100 ;Reset Flowrate

G28 ;Home

G92 E0 ;Reset Extruder
G1 Z2.0 F3000 ;Move Z Axis up
G1 X10.1 Y20 Z0.28 F5000.0 ;Move to start position
G1 X10.1 Y200.0 Z0.28 F1500.0 E15 ;Draw the first line
G1 X10.4 Y200.0 Z0.28 F5000.0 ;Move to side a little
G1 X10.4 Y20 Z0.28 F1500.0 E30 ;Draw the second line
G92 E0 ;Reset Extruder
G1 Z2.0 F3000 ;Move Z Axis up

M82 ;absolute extrusion mode
G92 E0
G92 E0
G1 F2100 E-6
;LAYER_COUNT:290
;LAYER:0
M107
G0 F6000 X80.719 Y79.223 Z0.2
;TYPE:SKIRT
G1 F2100 E0
G1 F900 X82.28 Y77.764 E0.07107
G1 X84.303 Y76.557 E0.14942
G1 X86.021 Y76.275 E0.20732
G1 X133.853 Y76.2 E1.79822
G1 X135.749 Y76.666 E1.86316
G1 X137.777 Y77.719 E1.93916
G1 X139.236 Y79.28 E2.01023
G1 X140.443 Y81.303 E2.08858
G1 X140.725 Y83.021 E2.14649
G1 X140.8 Y136.853 E3.93695
G1 X140.334 Y138.749 E4.00189
G1 X139.281 Y140.777 E4.07789
G1 X137.72 Y142.236 E4.14895
G1 X135.697 Y143.443 E4.22731
G1 X133.979 Y143.725 E4.28521
G1 X86.147 Y143.8 E5.87611
G1 X84.251 Y143.334 E5.94105
G1 X82.223 Y142.281 E6.01705
G1 X80.764 Y140.72 E6.08812
G1 X79.557 Y138.697 E6.16647
G1 X79.275 Y136.979 E6.22438
G1 X79.2 Y83.147 E8.01484
G1 X79.666 Y81.251 E8.07977
G1 X80.719 Y79.223 E8.15578
G0 F6000 X81.042 Y79.468
G1 F900 X82.519 Y78.088 E8.22301
G1 X84.443 Y76.94 E8.29753
G1 X86.086 Y76.67 E8.35291
G1 X133.807 Y76.6 E9.94011
G1 X135.606 Y77.042 E10.00173
G1 X137.532 Y78.042 E10.07391
G1 X138.912 Y79.519 E10.14114
G1 X140.06 Y81.443 E10.21566
G1 X140.33 Y83.086 E10.27104
G1 X140.4 Y136.807 E12.05781
G1 X139.958 Y138.606 E12.11942
G1 X138.958 Y140.532 E12.1916
G1 X137.481 Y141.912 E12.25883
G1 X135.557 Y143.06 E12.33335
G1 X133.914 Y143.33 E12.38873
G1 X86.193 Y143.4 E13.97594
G1 X84.394 Y142.958 E14.03755
G1 X82.468 Y141.958 E14.10973
G1 X81.088 Y140.481 E14.17696
G1 X79.94 Y138.557 E14.25148
G1 X79.67 Y136.914 E14.30686
G1 X79.6 Y83.193 E16.09363
G1 X80.042 Y81.394 E16.15524
G1 X81.042 Y79.468 E16.22742
G0 F6000 X81.365 Y79.713
G1 F900 X82.761 Y78.409 E16.29096
G1 X84.581 Y77.323 E16.36145
G1 X86.151 Y77.065 E16.41437
G1 X133.76 Y77 E17.99785
G1 X135.464 Y77.419 E18.05621
G1 X137.287 Y78.365 E18.12452
G1 X138.591 Y79.761 E18.18806
G1 X139.677 Y81.581 E18.25855
G1 X139.935 Y83.151 E18.31147
G1 X140 Y136.76 E20.09451
G1 X139.581 Y138.464 E20.15288
G1 X138.635 Y140.287 E20.22119
G1 X137.239 Y141.591 E20.28473
G1 X135.419 Y142.677 E20.35522
G1 X133.849 Y142.935 E20.40814
G1 X86.24 Y143 E21.99162
G1 X84.536 Y142.581 E22.04998
G1 X82.713 Y141.635 E22.11829
G1 X81.409 Y140.239 E22.18183
G1 X80.323 Y138.419 E22.25232
G1 X80.065 Y136.849 E22.30524
G1 X80 Y83.24 E24.08828
G1 X80.419 Y81.536 E24.14665
G1 X81.365 Y79.713 E24.21496
G0 F6000 X81.688 Y79.958
G1 F900 X83.003 Y78.73 E24.2748
G1 X84.719 Y77.706 E24.34126
G1 X86.216 Y77.46 E24.39172
G1 X133.714 Y77.4 E25.97151
G1 X135.321 Y77.795 E26.02655
G1 X137.042 Y78.688 E26.09104
G1 X138.27 Y80.003 E26.15088
G1 X139.294 Y81.719 E26.21735
G1 X139.54 Y83.216 E26.26781
G1 X139.6 Y136.714 E28.04716
G1 X139.205 Y138.321 E28.1022
G1 X138.312 Y140.042 E28.16669
G1 X136.997 Y141.27 E28.22653
G1 X135.281 Y142.294 E28.29299
G1 X133.784 Y142.54 E28.34345
G1 X86.286 Y142.6 E29.92324
G1 X84.679 Y142.205 E29.97828
G1 X82.958 Y141.312 E30.04277
G1 X81.73 Y139.997 E30.10261
G1 X80.706 Y138.281 E30.16908
G1 X80.46 Y136.784 E30.21953
G1 X80.4 Y83.286 E31.99889
G1 X80.795 Y81.679 E32.05393
G1 X81.688 Y79.958 E32.11841
G0 F6000 X82.011 Y80.203
G1 F900 X83.245 Y79.051 E32.17456
G1 X84.857 Y78.089 E32.237
G1 X86.281 Y77.855 E32.285
G1 X133.668 Y77.8 E33.8611
G1 X135.178 Y78.171 E33.91281
G1 X136.797 Y79.011 E33.97348
G1 X137.949 Y80.245 E34.02962
G1 X138.911 Y81.857 E34.09206
G1 X139.145 Y83.281 E34.14006
G1 X139.2 Y136.668 E35.91572
G1 X138.829 Y138.178 E35.96744
G1 X137.989 Y139.797 E36.0281
G1 X136.755 Y140.949 E36.08425
G1 X135.143 Y141.911 E36.14668
G1 X133.719 Y142.145 E36.19468
G1 X86.332 Y142.2 E37.77078
G1 X84.822 Y141.829 E37.8225
G1 X83.203 Y140.989 E37.88316
G1 X82.051 Y139.755 E37.93931
G1 X81.089 Y138.143 E38.00175
G1 X80.855 Y136.719 E38.04975
G1 X80.8 Y83.332 E39.82541
G1 X81.171 Y81.822 E39.87712
G1 X82.011 Y80.203 E39.93779
G0 F6000 X82.334 Y80.448
G1 F900 X83.487 Y79.372 E39.99024
G1 X84.995 Y78.472 E40.04865
G1 X86.346 Y78.25 E40.09419
G1 X133.621 Y78.2 E41.66656
G1 X135.036 Y78.548 E41.71503
G1 X136.552 Y79.334 E41.77182
G1 X137.628 Y80.487 E41.82428
G1 X138.528 Y81.995 E41.88269
G1 X138.75 Y83.346 E41.92822
G1 X138.8 Y136.621 E43.70016
G1 X138.452 Y138.036 E43.74862
G1 X137.666 Y139.552 E43.80542
G1 X136.513 Y140.628 E43.85787
G1 X135.005 Y141.528 E43.91628
G1 X133.654 Y141.75 E43.96182
G1 X86.379 Y141.8 E45.53419
G1 X84.964 Y141.452 E45.58266
G1 X83.448 Y140.666 E45.63946
G1 X82.372 Y139.513 E45.69191
G1 X81.472 Y138.005 E45.75032
G1 X81.25 Y136.654 E45.79586
G1 X81.2 Y83.379 E47.56779
G1 X81.548 Y81.964 E47.61626
G1 X82.334 Y80.448 E47.67305
G0 F6000 X82.657 Y80.693
G1 F900 X83.729 Y79.693 E47.72181
G1 X85.133 Y78.855 E47.7762
G1 X86.411 Y78.645 E47.81927
G1 X133.575 Y78.6 E49.38795
G1 X134.893 Y78.924 E49.4331
G1 X136.307 Y79.657 E49.48607
G1 X137.307 Y80.729 E49.53483
G1 X138.145 Y82.133 E49.58921
G1 X138.355 Y83.411 E49.63229
G1 X138.4 Y136.575 E51.40053
G1 X138.076 Y137.893 E51.44567
G1 X137.343 Y139.307 E51.49865
G1 X136.271 Y140.307 E51.54741
G1 X134.867 Y141.145 E51.60179
G1 X133.589 Y141.355 E51.64487
G1 X86.425 Y141.4 E53.21355
G1 X85.107 Y141.076 E53.25869
G1 X83.693 Y140.343 E53.31166
G1 X82.693 Y139.271 E53.36042
G1 X81.855 Y137.867 E53.4148
G1 X81.645 Y136.589 E53.45788
G1 X81.6 Y83.425 E55.22612
G1 X81.924 Y82.107 E55.27127
G1 X82.657 Y80.693 E55.32424
G0 F6000 X82.979 Y80.94
G1 F900 X83.974 Y80.012 E55.36949
G1 X85.271 Y79.238 E55.41973
G1 X86.476 Y79.04 E55.46034
G1 X133.529 Y79 E57.02533
G1 X134.75 Y79.3 E57.06715
G1 X136.06 Y79.979 E57.11623
G1 X136.988 Y80.974 E57.16148
G1 X137.762 Y82.271 E57.21172
G1 X137.96 Y83.476 E57.25233
G1 X138 Y136.529 E59.01688
G1 X137.7 Y137.75 E59.0587
G1 X137.021 Y139.06 E59.10778
G1 X136.026 Y139.988 E59.15303
G1 X134.729 Y140.762 E59.20327
G1 X133.524 Y140.96 E59.24388
G1 X86.471 Y141 E60.80887
G1 X85.25 Y140.7 E60.85069
G1 X83.94 Y140.021 E60.89977
G1 X83.012 Y139.026 E60.94502
G1 X82.238 Y137.729 E60.99526
G1 X82.04 Y136.524 E61.03587
G1 X82 Y83.471 E62.80042
G1 X82.3 Y82.25 E62.84224
G1 X82.979 Y80.94 E62.89132
G0 F6000 X83.301 Y81.187
G1 F900 X84.216 Y80.334 E62.93292
G1 X85.411 Y79.621 E62.97921
G1 X86.541 Y79.435 E63.0173
G1 X133.483 Y79.4 E64.57859
G1 X134.607 Y79.676 E64.61709
G1 X135.813 Y80.301 E64.66227
G1 X136.666 Y81.216 E64.70387
G1 X137.379 Y82.411 E64.75016
G1 X137.565 Y83.541 E64.78825
G1 X137.6 Y136.483 E66.5491
G1 X137.324 Y137.607 E66.5876
G1 X136.699 Y138.813 E66.63278
G1 X135.784 Y139.666 E66.67438
G1 X134.589 Y140.379 E66.72067
G1 X133.459 Y140.565 E66.75876
G1 X86.517 Y140.6 E68.32005
G1 X85.393 Y140.324 E68.35855
G1 X84.187 Y139.699 E68.40373
G1 X83.334 Y138.784 E68.44533
G1 X82.621 Y137.589 E68.49162
G1 X82.435 Y136.459 E68.52971
G1 X82.4 Y83.517 E70.29056
G1 X82.676 Y82.393 E70.32906
G1 X83.301 Y81.187 E70.37424
G0 F6000 X83.623 Y81.434
G1 F900 X84.458 Y80.656 E70.4122
G1 X85.551 Y80.004 E70.45453
G1 X86.606 Y79.83 E70.49009
G1 X133.436 Y79.8 E72.04766
G1 X134.465 Y80.053 E72.08291
G1 X135.566 Y80.623 E72.12414
G1 X136.344 Y81.458 E72.1621
G1 X136.996 Y82.551 E72.20443
G1 X137.17 Y83.606 E72.23999
G1 X137.2 Y136.436 E73.99713
G1 X136.947 Y137.465 E74.03237
G1 X136.377 Y138.566 E74.07361
G1 X135.542 Y139.344 E74.11157
G1 X134.449 Y139.996 E74.1539
G1 X133.394 Y140.17 E74.18946
G1 X86.564 Y140.2 E75.74703
G1 X85.535 Y139.947 E75.78228
G1 X84.434 Y139.377 E75.82351
G1 X83.656 Y138.542 E75.86147
G1 X83.004 Y137.449 E75.9038
G1 X82.83 Y136.394 E75.93936
G1 X82.8 Y83.564 E77.6965
G1 X83.053 Y82.535 E77.73174
G1 X83.623 Y81.434 E77.77298
G0 F6000 X83.945 Y81.681
G1 F900 X84.7 Y80.978 E77.80729
G1 X85.691 Y80.387 E77.84567
G1 X86.671 Y80.225 E77.8787
G1 X133.39 Y80.2 E79.43258
G1 X134.322 Y80.429 E79.4645
G1 X135.319 Y80.945 E79.50184
G1 X136.022 Y81.7 E79.53616
G1 X136.613 Y82.691 E79.57453
G1 X136.775 Y83.671 E79.60757
G1 X136.8 Y136.39 E81.36101
G1 X136.571 Y137.322 E81.39293
G1 X136.055 Y138.319 E81.43027
G1 X135.3 Y139.022 E81.46458
G1 X134.309 Y139.613 E81.50296
G1 X133.329 Y139.775 E81.536
G1 X86.61 Y139.8 E83.08988
G1 X85.678 Y139.571 E83.1218
G1 X84.681 Y139.055 E83.15913
G1 X83.978 Y138.3 E83.19345
G1 X83.387 Y137.309 E83.23182
G1 X83.225 Y136.329 E83.26486
G1 X83.2 Y83.61 E85.0183
G1 X83.429 Y82.678 E85.05022
G1 X83.945 Y81.681 E85.08756
G0 F6000 X84.268 Y81.926
G1 F900 X84.939 Y81.302 E85.11804
G1 X85.831 Y80.77 E85.15258
G1 X86.736 Y80.62 E85.18309
G1 X133.344 Y80.6 E86.73328
G1 X134.179 Y80.805 E86.76188
G1 X135.074 Y81.268 E86.79539
G1 X135.698 Y81.939 E86.82587
G1 X136.23 Y82.831 E86.86041
G1 X136.38 Y83.736 E86.89092
G1 X136.4 Y136.344 E88.64067
G1 X136.195 Y137.179 E88.66927
G1 X135.732 Y138.074 E88.70279
G1 X135.061 Y138.698 E88.73326
G1 X134.169 Y139.23 E88.76781
G1 X133.264 Y139.38 E88.79832
G1 X86.656 Y139.4 E90.34851
G1 X85.821 Y139.195 E90.3771
G1 X84.926 Y138.732 E90.41062
G1 X84.302 Y138.061 E90.44109
G1 X83.77 Y137.169 E90.47564
G1 X83.62 Y136.264 E90.50615
G1 X83.6 Y83.656 E92.2559
G1 X83.805 Y82.821 E92.2845
G1 X84.268 Y81.926 E92.31801
G0 F6000 X84.591 Y82.171
G1 F900 X85.178 Y81.626 E92.34465
G1 X85.971 Y81.153 E92.37536
G1 X86.802 Y81.015 E92.40338
G1 X133.298 Y81 E93.94984
G1 X134.036 Y81.181 E93.97512
G1 X134.829 Y81.591 E94.00481
G1 X135.374 Y82.178 E94.03145
G1 X135.847 Y82.971 E94.06216
G1 X135.985 Y83.802 E94.09018
G1 X136 Y136.298 E95.8362
G1 X135.819 Y137.036 E95.86148
G1 X135.409 Y137.829 E95.89117
G1 X134.822 Y138.374 E95.91781
G1 X134.029 Y138.847 E95.94852
G1 X133.198 Y138.985 E95.97654
G1 X86.702 Y139 E97.523
G1 X85.964 Y138.819 E97.54828
G1 X85.171 Y138.409 E97.57797
G1 X84.626 Y137.822 E97.60461
G1 X84.153 Y137.029 E97.63532
G1 X84.015 Y136.198 E97.66334
G1 X84 Y83.702 E99.40936
G1 X84.181 Y82.964 E99.43463
G1 X84.591 Y82.171 E99.46433
G0 F6000 X84.914 Y82.416
G1 F900 X85.417 Y81.95 E99.48713
G1 X86.111 Y81.536 E99.51401
G1 X86.868 Y81.41 E99.53953
G1 X133.248 Y81.4 E101.08214
G1 X133.897 Y81.559 E101.10436
G1 X134.584 Y81.914 E101.13008
G1 X135.05 Y82.417 E101.15289
G1 X135.464 Y83.111 E101.17977
G1 X135.59 Y83.868 E101.20529
G1 X135.6 Y136.248 E102.94746
G1 X135.441 Y136.897 E102.96968
G1 X135.086 Y137.584 E102.9954
G1 X134.583 Y138.05 E103.01821
G1 X133.889 Y138.464 E103.04509
G1 X133.132 Y138.59 E103.07061
G1 X86.752 Y138.6 E104.61321
G1 X86.103 Y138.441 E104.63544
G1 X85.416 Y138.086 E104.66116
G1 X84.95 Y137.583 E104.68397
G1 X84.536 Y136.889 E104.71084
G1 X84.41 Y136.132 E104.73637
G1 X84.4 Y83.752 E106.47853
G1 X84.559 Y83.103 E106.50076
G1 X84.914 Y82.416 E106.52648
G0 F6000 X85.237 Y82.662
G1 F900 X85.656 Y82.274 E106.54547
G1 X86.251 Y81.919 E106.56852
G1 X86.934 Y81.805 E106.59155
G1 X133.198 Y81.8 E108.13029
G1 X133.758 Y81.937 E108.14947
G1 X134.338 Y82.237 E108.17119
G1 X134.726 Y82.656 E108.19018
G1 X135.081 Y83.251 E108.21322
G1 X135.195 Y83.934 E108.23626
G1 X135.2 Y136.198 E109.97456
G1 X135.063 Y136.758 E109.99374
G1 X134.763 Y137.338 E110.01546
G1 X134.344 Y137.726 E110.03445
G1 X133.749 Y138.081 E110.05749
G1 X133.066 Y138.195 E110.08053
G1 X86.802 Y138.2 E111.61927
G1 X86.242 Y138.063 E111.63845
G1 X85.662 Y137.763 E111.66017
G1 X85.274 Y137.344 E111.67916
G1 X84.919 Y136.749 E111.7022
G1 X84.805 Y136.066 E111.72523
G1 X84.8 Y83.802 E113.46354
G1 X84.937 Y83.242 E113.48272
G1 X85.237 Y82.662 E113.50444
G0 F6000 X85.56 Y82.908
G1 F900 X85.898 Y82.595 E113.51976
G1 X86.389 Y82.302 E113.53878
G1 X87 Y82.2 E113.55938
G1 X133.148 Y82.2 E115.09427
G1 X133.619 Y82.315 E115.11039
G1 X134.092 Y82.56 E115.12811
G1 X134.405 Y82.898 E115.14343
G1 X134.698 Y83.389 E115.16245
G1 X134.8 Y84 E115.18305
G1 X134.8 Y136.148 E116.9175
G1 X134.685 Y136.619 E116.93363
G1 X134.44 Y137.092 E116.95135
G1 X134.102 Y137.405 E116.96667
G1 X133.611 Y137.698 E116.98568
G1 X133 Y137.8 E117.00629
G1 X86.852 Y137.8 E118.54118
G1 X86.381 Y137.685 E118.5573
G1 X85.908 Y137.44 E118.57502
G1 X85.595 Y137.102 E118.59034
G1 X85.302 Y136.611 E118.60936
G1 X85.2 Y136 E118.62996
G1 X85.2 Y83.852 E120.36441
G1 X85.315 Y83.381 E120.38054
G1 X85.56 Y82.908 E120.39825
G0 F6000 X85.883 Y83.154
G1 F900 X86.14 Y82.916 E120.4099
G1 X86.527 Y82.685 E120.42489
G1 X87 Y82.6 E120.44088
G1 X133.098 Y82.6 E121.9741
G1 X133.48 Y82.693 E121.98718
G1 X133.846 Y82.883 E122.0009
G1 X134.084 Y83.14 E122.01255
G1 X134.315 Y83.527 E122.02754
G1 X134.4 Y84 E122.04352
G1 X134.4 Y136.098 E123.77631
G1 X134.307 Y136.48 E123.78938
G1 X134.117 Y136.846 E123.8031
G1 X133.86 Y137.084 E123.81475
G1 X133.473 Y137.315 E123.82974
G1 X133 Y137.4 E123.84572
G1 X86.902 Y137.4 E125.37895
G1 X86.52 Y137.307 E125.39203
G1 X86.154 Y137.117 E125.40574
G1 X85.916 Y136.86 E125.41739
G1 X85.685 Y136.473 E125.43238
G1 X85.6 Y136 E125.44837
G1 X85.6 Y83.902 E127.18115
G1 X85.693 Y83.52 E127.19423
G1 X85.883 Y83.154 E127.20795
G0 F6000 X86.207 Y83.399
G1 F900 X86.345 Y83.26 E127.21446
G1 X86.672 Y83.065 E127.22712
G1 X87 Y83 E127.23824
G1 X133.049 Y83 E128.76984
G1 X133.338 Y83.07 E128.77973
G1 X133.601 Y83.207 E128.78959
G1 X133.74 Y83.345 E128.79611
G1 X133.935 Y83.672 E128.80877
G1 X134 Y84 E128.81989
G1 X134 Y136.049 E130.55105
G1 X133.93 Y136.338 E130.56094
G1 X133.793 Y136.601 E130.5708
G1 X133.655 Y136.74 E130.57732
G1 X133.328 Y136.935 E130.58998
G1 X133 Y137 E130.6011
G1 X86.951 Y137 E132.1327
G1 X86.662 Y136.93 E132.14259
G1 X86.399 Y136.793 E132.15245
G1 X86.26 Y136.655 E132.15897
G1 X86.065 Y136.328 E132.17163
G1 X86 Y136 E132.18275
G1 X86 Y83.951 E133.91391
G1 X86.07 Y83.662 E133.9238
G1 X86.207 Y83.399 E133.93366
G0 F6000 X86.839 Y83.881
G1 F900 X87 Y83.8 E133.93966
G1 X133 Y83.8 E135.46962
G1 X133.119 Y83.839 E135.47379
G1 X133.2 Y84 E135.47978
G1 X133.2 Y136 E137.20931
G1 X133.161 Y136.119 E137.21347
G1 X133 Y136.2 E137.21947
G1 X87 Y136.2 E138.74943
G1 X86.881 Y136.161 E138.7536
G1 X86.8 Y136 E138.75959
G1 X86.8 Y84 E140.48912
G1 X86.839 Y83.881 E140.49329
G0 F6000 X86.459 Y83.756
G1 F900 X86.55 Y83.604 E140.49918
G1 X86.82 Y83.443 E140.50963
G1 X87 Y83.4 E140.51579
G1 X133 Y83.4 E142.04575
G1 X133.244 Y83.459 E142.0541
G1 X133.396 Y83.55 E142.06
G1 X133.557 Y83.82 E142.07045
G1 X133.6 Y84 E142.07661
G1 X133.6 Y136 E143.80613
G1 X133.541 Y136.244 E143.81448
G1 X133.45 Y136.396 E143.82038
G1 X133.18 Y136.557 E143.83083
G1 X133 Y136.6 E143.83699
G1 X87 Y136.6 E145.36695
G1 X86.756 Y136.541 E145.3753
G1 X86.604 Y136.45 E145.38119
G1 X86.443 Y136.18 E145.39165
G1 X86.4 Y136 E145.39781
G1 X86.4 Y84 E147.12733
G1 X86.459 Y83.756 E147.13568
G1 F2100 E141.13568
G0 F6000 X92.952 Y108.185
G1 F2100 E147.13568
G1 F900 X95.048 Y108.185 E147.2054
G1 X96.095 Y110 E147.27509
G1 X95.048 Y111.815 E147.34478
G1 X92.952 Y111.815 E147.41449
G1 X91.905 Y110 E147.48418
G1 X92.952 Y108.185 E147.55387
G0 F6000 X93.184 Y108.585
G1 F900 X94.816 Y108.585 E147.60815
G1 X95.633 Y110 E147.6625
G1 X94.816 Y111.415 E147.71684
G1 X93.184 Y111.415 E147.77112
G1 X92.367 Y110 E147.82547
G1 X93.184 Y108.585 E147.87981
G0 F6000 X93.414 Y108.985
G1 F900 X94.586 Y108.985 E147.91879
G1 X95.171 Y110 E147.95776
G1 X94.586 Y111.015 E147.99672
G1 X93.414 Y111.015 E148.0357
G1 X92.829 Y110 E148.07467
G1 X93.414 Y108.985 E148.11363
G0 F6000 X93.646 Y109.385
G1 F900 X94.354 Y109.385 E148.13718
G1 X94.709 Y110 E148.1608
G1 X94.354 Y110.615 E148.18442
G1 X93.646 Y110.615 E148.20797
G1 X93.291 Y110 E148.23158
