;FLAVOR:Marlin
;TIME:12623
;Filament used: 11.7855m
;Layer height: 0.2
;MINX:63.393
;MINY:74.2
;MINZ:0.2
;MAXX:188.3
;MAXY:145.8
;MAXZ:58
;Generated with Cura_SteamEngine master
M140 S70
M105
M190 S70
M104 S240
M105
M109 S240
M82 ;absolute extrusion mode
M201 X500.00 Y500.00 Z100.00 E5000.00 ;Setup machine max acceleration
M203 X500.00 Y500.00 Z10.00 E50.00 ;Setup machine max feedrate
M204 P500.00 R1000.00 T500.00 ;Setup Print/Retract/Travel acceleration
M205 X8.00 Y8.00 Z0.40 E5.00 ;Setup Jerk
M220 S100 ;Reset Feedrate
M221 S100 ;Reset Flowrate

G28 ;Home


G92 E0
G92 E0
G1 F2700 E-5
;LAYER_COUNT:290
;LAYER:0

;MESH:NONMESH
G0 F300 X135.645 Y102.2 Z0.2
G0 F12000 X134.914 Y102.586
G0 X133.835 Y102.586
G0 X99.827 Y122.753
G0 X73.846 Y119.653
G0 X72.779 Y118.586
G0 X72.593 Y137.4
;TIME_ELAPSED:10688.084104
;LAYER:188
;TYPE:WALL-INNER
;MESH:Casing-Lid-Body.stl
G1 F2700 E1519.96318
G1 F3000 X71.793 Y137.4 E1519.98978
G1 X71.793 Y117.6 E1520.64834
G1 X94.844 Y117.6 E1521.41501
G1 X94.845 Y118.4 E1521.44162
G1 X72.593 Y118.4 E1522.18173
G1 X72.593 Y137.4 E1522.81367
G0 F12000 X72.993 Y137.8
;TYPE:WALL-OUTER
G1 F3000 X71.393 Y137.8 E1522.86689
G1 X71.393 Y117.2 E1523.55204
G1 X95.244 Y117.2 E1524.34533
G1 X95.245 Y118.8 E1524.39855
G1 X72.993 Y118.8 E1525.13865
G1 X72.993 Y137.8 E1525.7706
G0 F12000 X72.192 Y136.963
;TYPE:SKIN
G1 F3000 X72.192 Y136.68 E1525.78128
G1 X72.192 Y118.013 E1526.48588
G1 X76.703 Y117.999 E1526.65615
G1 X94.24 Y117.999 E1527.31809
G1 X94.625 Y117.818 E1527.33415
G1 F2700 E1522.33415
G0 F12000 X94.669 Y117.862
G0 X72.765 Y118.572
G0 X72.17 Y137.223
G1 F2700 E1527.33415
G1 F3000 X71.967 Y137.021 E1527.33891
G0 F12000 X71.993 Y137.021
G1 F2700 E1522.33891
G0 F12000 X72.779 Y118.586
G0 X73.846 Y119.653
G0 X95.602 Y119.661
G0 X96.055 Y119.208
G0 X96.276 Y118.567
G0 X97.341 Y118.566
G0 X102.793 Y117.6
;TYPE:WALL-INNER
G1 F2700 E1527.33891
G1 F3000 X102.793 Y82.6 E1528.50302
G1 X120.593 Y82.6 E1529.09505
G1 X120.593 Y83.4 E1529.12166
G1 X118.593 Y83.4 E1529.18818
G1 X118.593 Y86.4 E1529.28796
G1 X117.793 Y86.4 E1529.31456
G1 X117.793 Y83.4 E1529.41434
G1 X103.593 Y83.4 E1529.88664
G1 X103.593 Y118.4 E1531.05074
G1 X97.541 Y118.4 E1531.25203
G1 X97.54 Y117.6 E1531.27864
G1 X102.793 Y117.6 E1531.45336
G0 F12000 X102.393 Y117.2
;TYPE:WALL-OUTER
G1 F3000 X102.393 Y82.2 E1532.61746
G1 X120.993 Y82.2 E1533.2361
G1 X120.993 Y83.8 E1533.28932
G1 X118.993 Y83.8 E1533.35584
G1 X118.993 Y86.8 E1533.45562
G1 X117.393 Y86.8 E1533.50883
G1 X117.393 Y83.8 E1533.60861
G1 X103.993 Y83.8 E1534.0543
G1 X103.993 Y118.8 E1535.2184
G1 X97.141 Y118.8 E1535.4463
G1 X97.14 Y117.2 E1535.49952
G1 X102.393 Y117.2 E1535.67423
G0 F12000 X103.192 Y117.334
;TYPE:SKIN
G1 F3000 X103.192 Y117.617 E1535.69182
G1 X103.192 Y117.9 E1535.70941
G0 F12000 X103.008 Y117.999
G1 F3000 X102.725 Y117.999 E1535.72085
G1 X97.928 Y118.01 E1535.91473
G1 X97.787 Y118.151 E1535.92279
G0 F12000 X97.86 Y118.224
G0 X102.621 Y117.428
G0 X102.967 Y116.826
G0 X103.192 Y117.051
G1 F3000 X103.192 Y116.768 E1535.93345
G1 X103.192 Y83.11 E1537.2013
G0 F12000 X103.364 Y82.999
G1 F3000 X103.646 Y82.999 E1537.21178
G1 X117.506 Y82.999 E1537.72687
G1 X117.99 Y83.201 E1537.74636
G1 X118.192 Y83.685 E1537.76585
G1 X118.192 Y85.948 E1537.84996
G1 X118.076 Y86.115 E1537.85751
G0 F12000 X118.186 Y86.225
G0 X118.417 Y83.345
G1 F3000 X117.847 Y82.775 E1537.87092
G0 F12000 X118.355 Y83
G1 F3000 X118.638 Y83 E1537.88403
G1 X120.052 Y83 E1537.94957
G1 X120.263 Y82.928 E1537.9599
G0 F12000 X120.11 Y82.8
G1 F2700 E1532.9599
;MESH:Casing for cable assemblies-Main Body.stl
G0 F12000 X120.779 Y83.586
G0 X121.858 Y83.586
G0 X133.835 Y84.414
G0 X134.914 Y84.414
G0 X135.1 Y102.4
;TYPE:WALL-INNER
G1 F2700 E1537.9599
G1 F3000 X135.1 Y84.6 E1538.55193
G1 X179.9 Y84.6 E1540.04198
G1 X179.9 Y102.4 E1540.63401
G1 X179.1 Y102.4 E1540.66062
G1 X179.1 Y85.4 E1541.22605
G1 X135.9 Y85.4 E1542.66288
G1 X135.9 Y102.4 E1543.22831
G1 X135.1 Y102.4 E1543.25491
G0 F12000 X134.7 Y102.8
;TYPE:WALL-OUTER
G1 F3000 X134.7 Y84.2 E1543.87355
G1 X180.3 Y84.2 E1545.39021
G1 X180.3 Y102.8 E1546.00885
G1 X178.7 Y102.8 E1546.06207
G1 X178.7 Y85.8 E1546.62749
G1 X136.3 Y85.8 E1548.03772
G1 X136.3 Y102.8 E1548.60314
G1 X134.7 Y102.8 E1548.65636
G0 F12000 X135.295 Y102.203
;TYPE:SKIN
G1 F3000 X135.436 Y102.061 E1548.66389
G1 X135.498 Y101.274 E1548.69361
G1 X135.498 Y85.152 E1549.30054
G0 F12000 X135.628 Y84.999
G1 F3000 X135.911 Y84.999 E1549.31102
G1 X178.903 Y84.999 E1550.90399
G1 X179.498 Y85.595 E1550.9352
G1 X179.498 Y102 E1551.54305
G1 X179.357 Y102.141 E1551.55043
G0 F12000 X179.274 Y102.058
G0 X179.723 Y85.537
G1 F3000 X178.961 Y84.775 E1551.56835
G0 F12000 X179.244 Y84.775
G1 F3000 X179.723 Y85.254 E1551.57962
G0 F12000 X179.723 Y84.971
G1 F3000 X179.527 Y84.775 E1551.58423
G0 F12000 X179.527 Y84.8
G1 F2700 E1546.58423
;MESH:NONMESH
G0 F300 X179.527 Y84.8 Z0.4
G0 F12000 X136.086 Y85.586
G0 X137.153 Y86.653
G0 X137.161 Y103.157
G0 X136.657 Y103.661
G0 X104.35 Y119.661
G0 X96.784 Y119.661
G0 X96.28 Y119.157
G0 X96.109 Y117.413
G0 X95.03 Y117.414
G0 X72.765 Y118.572
G0 X72.593 Y137.4
;TIME_ELAPSED:10719.008733
;LAYER:189
;TYPE:WALL-INNER
;MESH:Casing-Lid-Body.stl
G1 F2700 E1551.58423
G1 F3000 X71.793 Y137.4 E1551.61084
G1 X71.793 Y117.6 E1552.26939
G1 X94.572 Y117.6 E1553.02702
G1 X94.572 Y118.4 E1553.05363
G1 X72.593 Y118.4 E1553.78465
G1 X72.593 Y137.4 E1554.4166
G0 F12000 X72.993 Y137.8
;TYPE:WALL-OUTER
G1 F3000 X71.393 Y137.8 E1554.46981
G1 X71.393 Y117.2 E1555.15497
G1 X94.972 Y117.2 E1555.93921
G1 X94.972 Y118.8 E1555.99243
G1 X72.993 Y118.8 E1556.72345
G1 X72.993 Y137.8 E1557.3554
G0 F12000 X72.389 Y137.195
;TYPE:SKIN
G1 F3000 X72.248 Y137.054 E1557.36289
G1 X72.192 Y136.262 E1557.39272
G1 X72.192 Y118.725 E1558.05155
G0 F12000 X72.919 Y117.999
G1 F3000 X72.414 Y118.221 E1558.08318
G0 F12000 X71.967 Y118.385
G1 F3000 X72.578 Y117.774 E1558.09755
G0 F12000 X72.131 Y117.938
G1 F3000 X71.99 Y117.796 E1558.10634
G0 F12000 X72.013 Y117.774
G0 X72.977 Y118.224
G0 X73.202 Y117.999
G1 F3000 X73.485 Y117.999 E1558.11715
G1 X94.132 Y117.999 E1558.90621
G1 X94.293 Y118.12 E1558.91391
G0 F12000 X94.19 Y118.2
G1 F2700 E1553.91391
G0 F12000 X94.752 Y117.6
G0 X95.837 Y117.6
G0 X96.548 Y117.6
G0 X97.633 Y117.6
G0 X102.793 Y117.6
;TYPE:WALL-INNER
G1 F2700 E1558.91391
G1 F3000 X102.793 Y82.6 E1560.07801
G1 X120.593 Y82.6 E1560.67004
G1 X120.593 Y83.4 E1560.69665
G1 X118.593 Y83.4 E1560.76317
G1 X118.593 Y86.4 E1560.86295
G1 X117.793 Y86.4 E1560.88956
G1 X117.793 Y83.4 E1560.98934
G1 X103.593 Y83.4 E1561.46163
G1 X103.593 Y118.4 E1562.62574
G1 X97.813 Y118.4 E1562.81798
G1 X97.813 Y117.6 E1562.84459
G1 X102.793 Y117.6 E1563.01023
G0 F12000 X102.393 Y117.2
;TYPE:WALL-OUTER
G1 F3000 X102.393 Y82.2 E1564.17433
G1 X120.993 Y82.2 E1564.79297
G1 X120.993 Y83.8 E1564.84619
G1 X118.993 Y83.8 E1564.91271
G1 X118.993 Y86.8 E1565.01249
G1 X117.393 Y86.8 E1565.0657
G1 X117.393 Y83.8 E1565.16548
G1 X103.993 Y83.8 E1565.61117
G1 X103.993 Y118.8 E1566.77527
G1 X97.413 Y118.8 E1566.99412
G1 X97.413 Y117.2 E1567.04734
G1 X102.393 Y117.2 E1567.21298
G0 F12000 X103.192 Y116.859
;TYPE:SKIN
G1 F3000 X103.192 Y116.576 E1567.22373
G1 X103.192 Y83.766 E1568.47027
G0 F12000 X102.967 Y83.708
G1 F3000 X103.417 Y83.258 E1568.48085
G1 X103.451 Y83.225
G1 X103.9 Y82.775 E1568.49142
G0 F12000 X103.618 Y82.775
G1 F3000 X102.967 Y83.425 E1568.50672
G0 F12000 X103.151 Y82.959
G1 F3000 X103.009 Y82.817 E1568.51396
G1 X104.241 Y83 E1568.55887
G1 X118.1 Y83 E1569.0586
G0 F12000 X118.608 Y82.775
G1 F3000 X117.967 Y83.416 E1569.07367
G0 F12000 X117.967 Y83.699
G1 F3000 X118.417 Y83.249 E1569.08426
G1 X118.441 Y83.225
G1 X118.891 Y82.775 E1569.09484
G0 F12000 X118.949 Y83
G1 F3000 X119.232 Y83 E1569.10699
G1 X120.08 Y83 E1569.14342
G1 X120.277 Y83.085 E1569.15263
G0 F12000 X120.417 Y82.946
G0 X118.417 Y83.532
G0 X118.192 Y83.757
G1 F3000 X118.192 Y84.04 E1569.16494
G1 X118.202 Y86.01 E1569.25062
G1 X118.343 Y86.151 E1569.25929
G1 F2700 E1564.25929
G0 F12000 X118.417 Y86.078
G0 X117.621 Y83.572
G0 X103.765 Y83.572
G0 X103.417 Y116.917
G0 X103.192 Y117.141
G1 F2700 E1569.25929
G1 F3000 X103.192 Y117.424 E1569.27023
G1 X103.046 Y117.853 E1569.28773
G1 X102.334 Y117.999 E1569.31581
G1 X98.374 Y117.999 E1569.46877
G1 X98.011 Y117.797 E1569.48482
G0 F12000 X97.988 Y117.82
G0 X102.958 Y118.224
G1 F3000 X103.417 Y117.765 E1569.49561
G0 F12000 X103.417 Y118.048
G1 F3000 X103.241 Y118.224 E1569.49975
G0 F12000 X103.241 Y118.2
G1 F2700 E1564.49975
;MESH:Casing for cable assemblies-Main Body.stl
G0 F12000 X103.773 Y102.4
G0 X104.858 Y102.4
G0 X133.835 Y102.4
G0 X134.92 Y102.4
G0 X135.1 Y102.4
;TYPE:WALL-INNER
G1 F2700 E1569.49975
G1 F3000 X135.1 Y84.6 E1570.09178
G1 X179.9 Y84.6 E1571.58184
G1 X179.9 Y102.4 E1572.17387
G1 X179.1 Y102.4 E1572.20048
G1 X179.1 Y85.4 E1572.7659
G1 X135.9 Y85.4 E1574.20274
G1 X135.9 Y102.4 E1574.76816
G1 X135.1 Y102.4 E1574.79477
G0 F12000 X134.7 Y102.8
;TYPE:WALL-OUTER
G1 F3000 X134.7 Y84.2 E1575.4134
G1 X180.3 Y84.2 E1576.93007
G1 X180.3 Y102.8 E1577.5487
G1 X178.7 Y102.8 E1577.60192
G1 X178.7 Y85.8 E1578.16734
G1 X136.3 Y85.8 E1579.57757
G1 X136.3 Y102.8 E1580.143
G1 X134.7 Y102.8 E1580.19621
G0 F12000 X135.543 Y102.044
;TYPE:SKIN
G1 F3000 X135.498 Y101.805 E1580.20523
G1 X135.498 Y85.683 E1580.80276
G1 X136.182 Y85 E1580.83858
G1 X135.699 Y85.2 E1580.85796
G0 F12000 X135.273 Y85.343
G1 F3000 X135.842 Y84.775 E1580.87133
G0 F12000 X135.559 Y84.775
G1 F3000 X135.273 Y85.06 E1580.87804
G0 F12000 X136.465 Y85
G1 F3000 X136.748 Y85 E1580.88872
G1 X179.457 Y85 E1582.49968
G1 X179.498 Y86.372 E1582.55145
G1 X179.498 Y101.929 E1583.13826
G1 X179.604 Y102.106 E1583.14604
G1 F2700 E1578.14604
G0 F12000 X179.486 Y102.225
G0 X178.928 Y85.572
G0 X136.072 Y85.572
G0 X135.724 Y102.146
G1 F2700 E1583.14604
G1 F3000 X135.645 Y102.225 E1583.1479
G0 F12000 X135.645 Y102.2
G1 F2700 E1578.1479
;MESH:NONMESH
G0 F300 X135.645 Y102.2 Z0.6
G0 F12000 X134.914 Y102.586
G0 X133.835 Y102.586
G0 X104.35 Y119.661
G0 X73.846 Y119.653
G0 X72.779 Y118.586
G0 X72.593 Y137.4
;TIME_ELAPSED:10750.307864
;LAYER:190
;TYPE:WALL-INNER
;MESH:Casing-Lid-Body.stl
G1 F2700 E1583.1479
G1 F3000 X71.793 Y137.4 E1583.17451
G1 X71.793 Y117.6 E1583.83306
G1 X94.394 Y117.6 E1584.58477
G1 X94.394 Y118.4 E1584.61138
G1 X72.593 Y118.4 E1585.33648
G1 X72.593 Y137.4 E1585.96842
G0 F12000 X72.993 Y137.8
;TYPE:WALL-OUTER
G1 F3000 X71.393 Y137.8 E1586.02164
G1 X71.393 Y117.2 E1586.7068
G1 X94.794 Y117.2 E1587.48512
G1 X94.794 Y118.8 E1587.53833
G1 X72.993 Y118.8 E1588.26344
G1 X72.993 Y137.8 E1588.89538
G0 F12000 X72.192 Y136.963
;TYPE:SKIN
G1 F3000 X72.192 Y136.68 E1588.90609
G1 X72.192 Y118.013 E1589.61214
G1 X76.703 Y117.999 E1589.78276
G1 X93.957 Y117.999 E1590.43538
G1 X94.117 Y117.875 E1590.44303
G1 F2700 E1585.44303
G0 F12000 X94.219 Y117.977
G0 X72.765 Y118.572
G0 X72.17 Y137.223
G1 F2700 E1590.44303
G1 F3000 X71.967 Y137.021 E1590.44779
G0 F12000 X71.993 Y137.021
G1 F2700 E1585.44779
G0 F12000 X72.779 Y118.586
G0 X73.846 Y119.653
G0 X95.151 Y119.661
G0 X96.726 Y118.586
G0 X97.811 Y118.586
G0 X102.793 Y117.6
;TYPE:WALL-INNER
G1 F2700 E1590.44779
G1 F3000 X102.793 Y82.6 E1591.6119
G1 X120.593 Y82.6 E1592.20393
G1 X120.593 Y83.4 E1592.23054
G1 X118.593 Y83.4 E1592.29706
G1 X118.593 Y86.4 E1592.39684
G1 X117.793 Y86.4 E1592.42345
G1 X117.793 Y83.4 E1592.52323
G1 X103.593 Y83.4 E1592.99552
G1 X103.593 Y118.4 E1594.15963
G1 X97.991 Y118.4 E1594.34595
G1 X97.991 Y117.6 E1594.37256
G1 X102.793 Y117.6 E1594.53227
G0 F12000 X102.393 Y117.2
;TYPE:WALL-OUTER
G1 F3000 X102.393 Y82.2 E1595.69638
G1 X120.993 Y82.2 E1596.31501
G1 X120.993 Y83.8 E1596.36823
G1 X118.993 Y83.8 E1596.43475
G1 X118.993 Y86.8 E1596.53453
G1 X117.393 Y86.8 E1596.58775
G1 X117.393 Y83.8 E1596.68753
G1 X103.993 Y83.8 E1597.13321
G1 X103.993 Y118.8 E1598.29732
G1 X97.591 Y118.8 E1598.51025
G1 X97.591 Y117.2 E1598.56347
G1 X102.393 Y117.2 E1598.72318
G0 F12000 X103.192 Y117.334
;TYPE:SKIN
G1 F3000 X103.192 Y117.617 E1598.74077
G1 X103.192 Y117.9 E1598.75836
G0 F12000 X103.008 Y117.999
G1 F3000 X102.725 Y117.999 E1598.77001
G1 X98.482 Y117.999 E1598.94469
G1 X98.295 Y118.094 E1598.95332
G0 F12000 X98.425 Y118.224
G0 X102.621 Y117.428
G0 X102.967 Y116.826
G0 X103.192 Y117.051
G1 F3000 X103.192 Y116.768 E1598.96398
G1 X103.192 Y83.11 E1600.23184
G0 F12000 X103.364 Y82.999
G1 F3000 X103.646 Y82.999 E1600.24232
G1 X117.506 Y82.999 E1600.75741
G1 X117.99 Y83.201 E1600.7769
G1 X118.192 Y83.685 E1600.79639
G1 X118.192 Y85.948 E1600.88049
G1 X118.076 Y86.115 E1600.88805
G0 F12000 X118.186 Y86.225
G0 X118.417 Y83.345
G1 F3000 X117.847 Y82.775 E1600.90146
G0 F12000 X118.355 Y83
G1 F3000 X118.638 Y83 E1600.91457
G1 X120.052 Y83 E1600.9801
G1 X120.263 Y82.928 E1600.99044
G0 F12000 X120.11 Y82.8
G1 F2700 E1595.99044
;MESH:Casing for cable assemblies-Main Body.stl
G0 F12000 X120.779 Y83.586
G0 X121.858 Y83.586
G0 X133.835 Y84.414
G0 X134.914 Y84.414
G0 X135.1 Y102.4
;TYPE:WALL-INNER
G1 F2700 E1600.99044
G1 F3000 X135.1 Y84.6 E1601.58247
G1 X179.9 Y84.6 E1603.07252
G1 X179.9 Y102.4 E1603.66455
G1 X179.1 Y102.4 E1603.69116
G1 X179.1 Y85.4 E1604.25658
G1 X135.9 Y85.4 E1605.69342
G1 X135.9 Y102.4 E1606.25884
G1 X135.1 Y102.4 E1606.28545
G0 F12000 X134.7 Y102.8
;TYPE:WALL-OUTER
G1 F3000 X134.7 Y84.2 E1606.90409
G1 X180.3 Y84.2 E1608.42075
G1 X180.3 Y102.8 E1609.03939
G1 X178.7 Y102.8 E1609.09261
G1 X178.7 Y85.8 E1609.65803
G1 X136.3 Y85.8 E1611.06826
G1 X136.3 Y102.8 E1611.63368
G1 X134.7 Y102.8 E1611.6869
G0 F12000 X135.295 Y102.203
;TYPE:SKIN
G1 F3000 X135.436 Y102.061 E1611.69443
G1 X135.498 Y101.274 E1611.72415
G1 X135.498 Y85.152 E1612.33107
G0 F12000 X135.628 Y84.999
G1 F3000 X135.911 Y84.999 E1612.34156
G1 X178.903 Y84.999 E1613.93453
G1 X179.498 Y85.595 E1613.96573
G1 X179.498 Y102 E1614.57358
G1 X179.357 Y102.141 E1614.58097
G0 F12000 X179.274 Y102.058
G0 X179.723 Y85.537
G1 F3000 X178.961 Y84.775 E1614.59889
G0 F12000 X179.244 Y84.775
G1 F3000 X179.723 Y85.254 E1614.61016
G0 F12000 X179.723 Y84.971
G1 F3000 X179.527 Y84.775 E1614.61477
G0 F12000 X179.527 Y84.8
G1 F2700 E1609.61477
;MESH:NONMESH
G0 F300 X179.527 Y84.8 Z0.8
G0 F12000 X136.072 Y85.572
G0 X134.914 Y102.586
G0 X133.835 Y102.586
G0 X104.35 Y119.661
G0 X97.234 Y119.661
G0 X96.781 Y119.208
G0 X95.867 Y117.2
;TIME_ELAPSED:10780.303330
;LAYER:191
;TYPE:SUPPORT
G1 F2700 E1614.61477
G1 F3000 X96.518 Y117.2 E1614.63642
G1 X96.518 Y118.8 E1614.68964
G1 X95.867 Y118.8 E1614.71129
G1 X95.867 Y117.2 E1614.7645
G0 F12000 X96.147 Y117.48
G1 F3000 X96.238 Y117.48 E1614.76753
G1 X96.238 Y118.52 E1614.80212
G1 X96.147 Y118.52 E1614.80515
G1 X96.147 Y117.48 E1614.83974
G1 F2700 E1609.83974
;MESH:Casing-Lid-Body.stl
G0 F12000 X94.453 Y118.586
G0 X72.765 Y118.572
G0 X72.593 Y137.4
;TYPE:WALL-INNER
G1 F2700 E1614.83974
G1 F3000 X71.793 Y137.4 E1614.86635
G1 X71.793 Y117.6 E1615.5249
G1 X94.267 Y117.6 E1616.27239
G1 X94.267 Y118.4 E1616.29899
G1 X72.593 Y118.4 E1617.01987
G1 X72.593 Y137.4 E1617.65182
G0 F12000 X72.993 Y137.8
;TYPE:WALL-OUTER
G1 F3000 X71.393 Y137.8 E1617.70503
G1 X71.393 Y117.2 E1618.39019
G1 X94.667 Y117.2 E1619.16429
G1 X94.667 Y118.8 E1619.2175
G1 X72.993 Y118.8 E1619.93838
G1 X72.993 Y137.8 E1620.57033
G0 F12000 X72.389 Y137.195
;TYPE:SKIN
G1 F3000 X72.248 Y137.054 E1620.57782
G1 X72.192 Y136.262 E1620.60765
G1 X72.192 Y118.725 E1621.26648
G0 F12000 X72.919 Y117.999
G1 F3000 X72.414 Y118.221 E1621.29811
G0 F12000 X71.967 Y118.385
G1 F3000 X72.578 Y117.774 E1621.31248
G0 F12000 X72.131 Y117.938
G1 F3000 X71.99 Y117.796 E1621.32127
G0 F12000 X72.013 Y117.774
G0 X72.977 Y118.224
G0 X73.202 Y117.999
G1 F3000 X73.485 Y117.999 E1621.33208
G1 X93.849 Y117.999 E1622.11008
G1 X93.999 Y118.132 E1622.11774
G0 F12000 X94.067 Y118.04
G1 F2700 E1617.11774
G0 F12000 X94.447 Y117.6
G0 X95.028 Y116.371
G0 X97.357 Y116.371
G0 X97.938 Y117.6
G0 X102.793 Y117.6
;TYPE:WALL-INNER
G1 F2700 E1622.11774
G1 F3000 X102.793 Y82.6 E1623.28184
G1 X120.593 Y82.6 E1623.87387
G1 X120.593 Y83.4 E1623.90048
G1 X118.593 Y83.4 E1623.967
G1 X118.593 Y86.4 E1624.06678
G1 X117.793 Y86.4 E1624.09339
